!!!COM: Haydn, Franz Joseph
!!!OPR: Symphony in C Minor
!!!OTL: Affettuoso 
!!!OMV: 4
!!!SCT: H I:95
!!!SCA: Thematisch-bibliographisches Werkevererzeichnis (A. van Hoboken)
!!!YOR: Dover Edition
!!!EED: Frances Bennion
!!!ENC: Frances Bennion
!!!CDT: 1732/3/31/-1809/5/31/
!!!OCY: Österreich
!!!YEC: Copyright (c) 1994, 2000 Center for Computer Assisted Research in the Humanities
!!!YEM: Rights to all derivative editions reserved.
!!!YEM: Refer to licensing agreement for further details.
!!!YEN: United States of America
**kern	**kern	**kern	**kern	**kern	**kern	**kern	**kern	**kern	**kern	**kern	**kern	**kern	**kern	**kern
*k[]	*k[]	*k[]	*k[]	*k[]	*k[]	*k[]	*k[]	*k[]	*k[]	*k[]	*k[]	*k[]	*k[]	*k[]
*C:	*C:	*C:	*C:	*C:	*C:	*C:	*C:	*C:	*C:	*C:	*C:	*C:	*C:	*C:
*clefF	*clefF4	*clefF	*clefF	*clefC3	*clefF4	*clefF4	*clefF	*clefF	*clefF4	*clefF4	*clefF	*clefF	*clefF	*clefF
*M2/2	*M2/2	*M2/2	*M2/2	*M2/2	*M2/2	*M2/2	*M2/2	*M2/2	*M2/2	*M2/2	*M2/2	*M2/2	*M2/2	*M2/2
*tb8	*tb8	*tb8	*tb8	*tb8	*tb8	*tb8	*tb8	*tb8	*tb8	*tb8	*tb8	*tb8	*tb8	*tb8
=1	=1	=1	=1	=1	=1	=1	=1	=1	=1	=1	=1	=1	=1	=1
1r	1r	2.ee	1cc	1g	[1c	[1c	1r	1r	1r	1r	1r	1r	1r	1r
.	.	8ff	.	.	.	.	.	.	.	.	.	.	.	.
.	.	8ee	.	.	.	.	.	.	.	.	.	.	.	.
=2	=2	=2	=2	=2	=2	=2	=2	=2	=2	=2	=2	=2	=2	=2
1r	1r	2dd	1b	1f	1c_	1c_	1r	1r	1r	1r	1r	1r	1r	1r
.	.	2gg	.	.	.	.	.	.	.	.	.	.	.	.
=3	=3	=3	=3	=3	=3	=3	=3	=3	=3	=3	=3	=3	=3	=3
1r	1r	4cc	4b-	4e	1c_	1c_	1r	1r	1r	1r	1r	1r	1r	1r
.	.	4ee	4g	4b-	.	.	.	.	.	.	.	.	.	.
.	.	4ff	4a	4a	.	.	.	.	.	.	.	.	.	.
.	.	4aa	4f	4f	.	.	.	.	.	.	.	.	.	.
=4	=4	=4	=4	=4	=4	=4	=4	=4	=4	=4	=4	=4	=4	=4
1r	1r	2aa	2f	1c	1c]	1c]	1r	1r	1r	1r	1r	1r	1r	1r
.	.	2gg	2e	.	.	.	.	.	.	.	.	.	.	.
=5	=5	=5	=5	=5	=5	=5	=5	=5	=5	=5	=5	=5	=5	=5
1r	1r	4ff	4g	4d	4B	4B	1r	1r	1r	1r	1r	1r	1r	1r
.	.	4ff	4g	4d	4B	4B	.	.	.	.	.	.	.	.
.	.	4ff	4g	4d	4B	4B	.	.	.	.	.	.	.	.
.	.	4r	4r	4r	4r	4r	.	.	.	.	.	.	.	.
=6	=6	=6	=6	=6	=6	=6	=6	=6	=6	=6	=6	=6	=6	=6
1r	1r	4ee	4g	4c	4c	4c	1r	1r	1r	1r	1r	1r	1r	1r
.	.	4ee	4g	4c	4c	4c	.	.	.	.	.	.	.	.
.	.	4ee	4g	4c	4c	4c	.	.	.	.	.	.	.	.
.	.	4r	4r	4r	4r	4r	.	.	.	.	.	.	.	.
=7	=7	=7	=7	=7	=7	=7	=7	=7	=7	=7	=7	=7	=7	=7
1r	1r	4dd	4a	4f	4F	4F	1r	1r	1r	1r	1r	1r	1r	1r
.	.	4dd	4r	4r	4r	4r	.	.	.	.	.	.	.	.
.	.	8cc	4f	4d	4G	4G	.	.	.	.	.	.	.	.
.	.	8b	.	.	.	.	.	.	.	.	.	.	.	.
.	.	8a	4r	4r	4r	4r	.	.	.	.	.	.	.	.
.	.	8g	.	.	.	.	.	.	.	.	.	.	.	.
=8	=8	=8	=8	=8	=8	=8	=8	=8	=8	=8	=8	=8	=8	=8
1r	1r	4cc	4e	4e	4C	4C	1r	1r	1r	1r	1r	1r	1r	1r
.	.	2.r	2.r	2.r	2.r	2.r	.	.	.	.	.	.	.	.
=9	=9	=9	=9	=9	=9	=9	=9	=9	=9	=9	=9	=9	=9	=9
1r	1r	1d	1B	4G	4G 4GG	4GG	1r	1r	1r	1r	1r	1r	1r	1r
.	.	.	.	2.r	4G	2.r	.	.	.	.	.	.	.	.
.	.	.	.	.	4G	.	.	.	.	.	.	.	.	.
.	.	.	.	.	4r	.	.	.	.	.	.	.	.	.
=10	=10	=10	=10	=10	=10	=10	=10	=10	=10	=10	=10	=10	=10	=10
1r	1r	2.e	1c	4G	4GG 4G	4GG	1r	1r	1r	1r	1r	1r	1r	1r
.	.	.	.	2.r	4G	2.r	.	.	.	.	.	.	.	.
.	.	.	.	.	4G	.	.	.	.	.	.	.	.	.
.	.	4g	.	.	4r	.	.	.	.	.	.	.	.	.
=11	=11	=11	=11	=11	=11	=11	=11	=11	=11	=11	=11	=11	=11	=11
1r	1r	4f#	2A	2.c	4GG 4G	4GG	1r	1r	1r	1r	1r	1r	1r	1r
.	.	4cc	.	.	4G	2.r	.	.	.	.	.	.	.	.
.	.	4a	2c	.	4G	.	.	.	.	.	.	.	.	.
.	.	4f#	.	4a	4r	.	.	.	.	.	.	.	.	.
=12	=12	=12	=12	=12	=12	=12	=12	=12	=12	=12	=12	=12	=12	=12
1r	1r	2a	2c	2f#	4GG 4G	4GG	1r	1r	1r	1r	1r	1r	1r	1r
.	.	.	.	.	4G	2.r	.	.	.	.	.	.	.	.
.	.	2g	2B	2g	4G	.	.	.	.	.	.	.	.	.
.	.	.	.	.	4r	.	.	.	.	.	.	.	.	.
=13	=13	=13	=13	=13	=13	=13	=13	=13	=13	=13	=13	=13	=13	=13
1r	1r	1g#	1B	1d	1E	1E	1r	1r	1r	1r	1r	1r	1r	1r
=14	=14	=14	=14	=14	=14	=14	=14	=14	=14	=14	=14	=14	=14	=14
1r	1r	4a	2c	2.c	1F	1F	1r	1r	1r	1r	1r	1r	1r	1r
.	.	4aa	.	.	.	.	.	.	.	.	.	.	.	.
.	.	4ff	4a	.	.	.	.	.	.	.	.	.	.	.
.	.	4dd	4f	4d	.	.	.	.	.	.	.	.	.	.
=15	=15	=15	=15	=15	=15	=15	=15	=15	=15	=15	=15	=15	=15	=15
1r	1r	2cc	2e	2e	1G	1G	1r	1r	1r	1r	1r	1r	1r	1r
.	.	4.dd	4.f	4.B	.	.	.	.	.	.	.	.	.	.
.	.	8cc	8e	8c	.	.	.	.	.	.	.	.	.	.
=16	=16	=16	=16	=16	=16	=16	=16	=16	=16	=16	=16	=16	=16	=16
1r	1r	4cc	4e	4c	2C	2C	1r	1r	4e	4c	1cc	1e	1r	1r
.	.	2.r	2.r	2.r	.	.	.	.	4G	4G	.	.	.	.
.	.	.	.	.	2r	2r	.	.	4e	4c	.	.	.	.
.	.	.	.	.	.	.	.	.	4G	4G	.	.	.	.
=17	=17	=17	=17	=17	=17	=17	=17	=17	=17	=17	=17	=17	=17	=17
4bb	1r	4b	4f	4d	4G	4G	1r	1r	4f	4d	1dd	1g	1r	1r
4bb	.	4b	2.r	2.r	2.r	2.r	.	.	4G	4G	.	.	.	.
4bb	.	4b	.	.	.	.	.	.	4f	4d	.	.	.	.
4r	.	4r	.	.	.	.	.	.	4G	4G	.	.	.	.
=18	=18	=18	=18	=18	=18	=18	=18	=18	=18	=18	=18	=18	=18	=18
8bb	1r	8b	4e	4c	4G	4G	1r	1r	4e	4c	1ee	1cc	1r	1r
8ccc	.	8cc	.	.	.	.	.	.	.	.	.	.	.	.
8eee	.	8ee	2.r	2.r	2.r	2.r	.	.	4G	4G	.	.	.	.
8ccc	.	8cc	.	.	.	.	.	.	.	.	.	.	.	.
4gg	.	4g	.	.	.	.	.	.	4e	4c	.	.	.	.
4r	.	4r	.	.	.	.	.	.	4G	4G	.	.	.	.
=19	=19	=19	=19	=19	=19	=19	=19	=19	=19	=19	=19	=19	=19	=19
4ff	1r	4ff	4b 4f	4d	4G	4G	1r	1r	4d	4B	1dd	1g	1r	1r
4ff	.	4ff	2.r	2.r	2.r	2.r	.	.	4G	4G	.	.	.	.
4ff	.	4ff	.	.	.	.	.	.	4d	4B	.	.	.	.
4r	.	4r	.	.	.	.	.	.	4G	4G	.	.	.	.
=20	=20	=20	=20	=20	=20	=20	=20	=20	=20	=20	=20	=20	=20	=20
8dd#	1r	8dd#	4e 4cc	4c	4G	4G	1r	1r	4e	4c	1cc	1e	1r	1r
8ee	.	8ee	.	.	.	.	.	.	.	.	.	.	.	.
8gg	.	8gg	2.r	2.r	2.r	2.r	.	.	4G	4G	.	.	.	.
8ee	.	8ee	.	.	.	.	.	.	.	.	.	.	.	.
4cc	.	4cc	.	.	.	.	.	.	4e	4c	.	.	.	.
4r	.	4r	.	.	.	.	.	.	4G	4G	.	.	.	.
=21	=21	=21	=21	=21	=21	=21	=21	=21	=21	=21	=21	=21	=21	=21
4bb	1r	4b	4f	4d	4G	4G	1r	1r	4f	4d	1dd	1g	1r	1r
4bb	.	4b	2.r	2.r	2.r	2.r	.	.	4G	4G	.	.	.	.
4bb	.	4b	.	.	.	.	.	.	4f	4d	.	.	.	.
4r	.	4r	.	.	.	.	.	.	4G	4G	.	.	.	.
=22	=22	=22	=22	=22	=22	=22	=22	=22	=22	=22	=22	=22	=22	=22
8bb	1r	8b	4e	4c	4C	4C	1r	1r	4e	4c	2ee	2cc	1r	1r
8ccc	.	8cc	.	.	.	.	.	.	.	.	.	.	.	.
8eee	.	8ee	2r	2r	2r	2r	.	.	4G	4G	.	.	.	.
8ccc	.	8cc	.	.	.	.	.	.	.	.	.	.	.	.
4gg	.	4g	.	.	.	.	.	.	4e	4c	4r	4r	.	.
4bb	.	4b	4f	4d	4G	4G	.	.	4f	4G	4dd	4g	.	.
=23	=23	=23	=23	=23	=23	=23	=23	=23	=23	=23	=23	=23	=23	=23
8bb	1r	8b	4e	4c	4C	4C	1r	1r	4e	4c	4ee	4cc	1r	1r
8ccc	.	8cc	.	.	.	.	.	.	.	.	.	.	.	.
8eee	.	8ee	2r	2r	2r	2r	.	.	4G	4G	2r	2r	.	.
8ccc	.	8cc	.	.	.	.	.	.	.	.	.	.	.	.
4gg	.	4g	.	.	.	.	.	.	4e	4c	.	.	.	.
4bb	.	4b	4f	4d	4G	4G	.	.	4f	4d	4dd	4g	.	.
=24	=24	=24	=24	=24	=24	=24	=24	=24	=24	=24	=24	=24	=24	=24
8bb	1r	8b	4e	4c	4C	4C	2.r	2.r	4e	4c	4ee	4cc	1r	1r
8ccc	.	8cc	.	.	.	.	.	.	.	.	.	.	.	.
8eee	.	8ee	2r	2.r	2.r	2.r	.	.	2.r	2.r	2.r	2.r	.	.
8ccc	.	8cc	.	.	.	.	.	.	.	.	.	.	.	.
4gg	.	4g	.	.	.	.	.	.	.	.	.	.	.	.
4r	.	4e	4c	.	.	.	4ee	4cc	.	.	.	.	.	.
=25	=25	=25	=25	=25	=25	=25	=25	=25	=25	=25	=25	=25	=25	=25
1r	1r	4e	4c	1r	1r	1r	4ee	4cc	1r	1r	1r	1r	1r	1r
.	.	4d	4B	.	.	.	4dd	4b	.	.	.	.	.	.
.	.	4e	4c	.	.	.	4ee	4cc	.	.	.	.	.	.
.	.	4f	4d	.	.	.	4ff	4dd	.	.	.	.	.	.
=26	=26	=26	=26	=26	=26	=26	=26	=26	=26	=26	=26	=26	=26	=26
1r	1r	1g	1e	4c	4C	4C	1gg	1ee	4C	4C	1r	1r	1r	1r
.	.	.	.	4c	2.r	2.r	.	.	4c	4c	.	.	.	.
.	.	.	.	4c	.	.	.	.	4c	4c	.	.	.	.
.	.	.	.	4c	.	.	.	.	4c	4c	.	.	.	.
=27	=27	=27	=27	=27	=27	=27	=27	=27	=27	=27	=27	=27	=27	=27
1r	1r	2f#	2d#	4c	1r	1r	2ff#	2dd#	4C	4C	1r	1r	1r	1r
.	.	.	.	4c	.	.	.	.	4c	4c	.	.	.	.
.	.	2g	2e	4c	.	.	2gg	2ee	4c	4c	.	.	.	.
.	.	.	.	4c	.	.	.	.	4c	4c	.	.	.	.
=28	=28	=28	=28	=28	=28	=28	=28	=28	=28	=28	=28	=28	=28	=28
1r	1r	8g#	4f	2c	4F	4F	8gg#	4ff	2F	2F	1r	1r	1r	1r
.	.	8a	.	.	.	.	8aa	.	.	.	.	.	.	.
.	.	8cc	2r	.	2r	2r	8ccc	2r	.	.	.	.	.	.
.	.	8a	.	.	.	.	8aa	.	.	.	.	.	.	.
.	.	4f	.	4r	.	.	4ff	.	4r	4r	.	.	.	.
.	.	4g	4e	4c	4C	4C	4gg	4ee	4C	4C	.	.	.	.
=29	=29	=29	=29	=29	=29	=29	=29	=29	=29	=29	=29	=29	=29	=29
1r	1r	8g#	4f	4c	4F	4F	8gg#	4ff	4F	4F	1r	1r	1r	1r
.	.	8a	.	.	.	.	8aa	.	.	.	.	.	.	.
.	.	8cc	2r	2r	2r	2r	8ccc	2r	2r	2r	.	.	.	.
.	.	8a	.	.	.	.	8aa	.	.	.	.	.	.	.
.	.	4f	.	.	.	.	4ff	.	.	.	.	.	.	.
.	.	4g	4e	4c	4C	4C	4gg	4ee	4C	4C	.	.	.	.
=30	=30	=30	=30	=30	=30	=30	=30	=30	=30	=30	=30	=30	=30	=30
1r	1r	8g#	4f	4c	4F	4F	8gg#	4ff	4F	4F	1r	1r	1r	1r
.	.	8a	.	.	.	.	8aa	.	.	.	.	.	.	.
.	.	8cc	2r	2r	2r	2r	8ccc	2r	2r	2r	.	.	.	.
.	.	8a	.	.	.	.	8aa	.	.	.	.	.	.	.
.	.	4f	.	.	.	.	4ff	.	.	.	.	.	.	.
.	.	4aa	4ff	4F	4F	4F	4aa	4ff	4F	4F	.	.	.	.
=31	=31	=31	=31	=31	=31	=31	=31	=31	=31	=31	=31	=31	=31	=31
1r	1r	4gg	4ee	2G	2G	2G	4gg	4ee	2G	2G	1r	1r	1r	1r
.	.	4ff	4dd	.	.	.	4ff	4dd	.	.	.	.	.	.
.	.	4ee	4cc	2G	2GG	2GG	4ee	4cc	2GG	2GG	.	.	.	.
.	.	4dd	4b	.	.	.	4dd	4b	.	.	.	.	.	.
=32	=32	=32	=32	=32	=32	=32	=32	=32	=32	=32	=32	=32	=32	=32
1r	1r	4cc	4cc	4c	4C	4C	4cc	4cc	4C	4C	1r	1r	1r	1r
.	.	2.r	2.r	2.r	2.r	2.r	2.r	2.r	2.r	2.r	.	.	.	.
=33	=33	=33	=33	=33	=33	=33	=33	=33	=33	=33	=33	=33	=33	=33
1r	2C	4cc	2.ee	2c	4C	4C	4cc	4cc	2C	2C	1ee	1cc	1ee	1cc
.	.	2.r	.	.	2.r	2.r	2.r	2.r	.	.	.	.	.	.
.	2r	.	.	[2cc	.	.	.	.	[2c	[2c	.	.	.	.
.	.	.	8ff	.	.	.	.	.	.	.	.	.	.	.
.	.	.	8ee	.	.	.	.	.	.	.	.	.	.	.
=34	=34	=34	=34	=34	=34	=34	=34	=34	=34	=34	=34	=34	=34	=34
1r	2GG	1r	2dd	4cc]	1r	1r	1r	1r	4c]	4c]	2dd	2g	2dd	2g
.	.	.	.	8b	.	.	.	.	8B	8B	.	.	.	.
.	.	.	.	8a	.	.	.	.	8A	8A	.	.	.	.
.	2r	.	2gg	[2b	.	.	.	.	[2B	[2B	2r	2r	2r	2r
=35	=35	=35	=35	=35	=35	=35	=35	=35	=35	=35	=35	=35	=35	=35
1r	1r	1r	2.cc	4b]	1r	1r	1r	1r	4B]	4B]	1r	1r	1r	1r
.	.	.	.	4e	.	.	.	.	4E	4E	.	.	.	.
.	.	.	.	[2a	.	.	.	.	[2A	[2A	.	.	.	.
.	.	.	8dd	.	.	.	.	.	.	.	.	.	.	.
.	.	.	8cc	.	.	.	.	.	.	.	.	.	.	.
=36	=36	=36	=36	=36	=36	=36	=36	=36	=36	=36	=36	=36	=36	=36
1r	1r	1r	2b	4a]	1r	1r	1r	1r	4A]	4A]	1r	1r	1r	1r
.	.	.	.	8g	.	.	.	.	8G	8G	.	.	.	.
.	.	.	.	8f	.	.	.	.	8F	8F	.	.	.	.
.	.	.	2ee	[2g	.	.	.	.	[2G	[2G	.	.	.	.
=37	=37	=37	=37	=37	=37	=37	=37	=37	=37	=37	=37	=37	=37	=37
1r	1r	1r	2.a	4g]	1r	1r	1r	1r	4G]	4G]	1r	1r	1r	1r
.	.	.	.	4c	.	.	.	.	4C	4C	.	.	.	.
.	.	.	.	[2f	.	.	.	.	[2F	[2F	.	.	.	.
.	.	.	8b	.	.	.	.	.	.	.	.	.	.	.
.	.	.	8a	.	.	.	.	.	.	.	.	.	.	.
=38	=38	=38	=38	=38	=38	=38	=38	=38	=38	=38	=38	=38	=38	=38
1r	1r	1r	4g	4f]	1r	1r	1r	1r	4F]	4F]	1r	1r	1r	1r
.	.	.	8a	8e	.	.	.	.	8E	8E	.	.	.	.
.	.	.	8b	8d	.	.	.	.	8D	8D	.	.	.	.
.	.	.	4cc	4e	.	.	.	.	4E	4E	.	.	.	.
.	.	.	8dd	4c	.	.	.	.	4c	4c	.	.	.	.
.	.	.	8ee	.	.	.	.	.	.	.	.	.	.	.
=39	=39	=39	=39	=39	=39	=39	=39	=39	=39	=39	=39	=39	=39	=39
1r	1r	1r	8ff	2d	1r	1r	1r	1r	2d	2d	1r	1r	1r	1r
.	.	.	8ee	.	.	.	.	.	.	.	.	.	.	.
.	.	.	8dd	.	.	.	.	.	.	.	.	.	.	.
.	.	.	8cc	.	.	.	.	.	.	.	.	.	.	.
.	.	.	8b	2g	.	.	.	.	2G	2G	.	.	.	.
.	.	.	8a	.	.	.	.	.	.	.	.	.	.	.
.	.	.	8g	.	.	.	.	.	.	.	.	.	.	.
.	.	.	8f	.	.	.	.	.	.	.	.	.	.	.
=40	=40	=40	=40	=40	=40	=40	=40	=40	=40	=40	=40	=40	=40	=40
1r	1r	2.gg	2e	2c	1r	1r	1r	1r	2c	2c	1r	1r	1r	1r
.	.	.	[2ee	2r	.	.	.	.	2r	2r	.	.	.	.
.	.	8aa	.	.	.	.	.	.	.	.	.	.	.	.
.	.	8gg	.	.	.	.	.	.	.	.	.	.	.	.
=41	=41	=41	=41	=41	=41	=41	=41	=41	=41	=41	=41	=41	=41	=41
1r	1r	2ff#	2ee]	8r	1r	1r	1r	1r	8r	8r	1r	1r	1r	1r
.	.	.	.	8a	.	.	.	.	8A	8A	.	.	.	.
.	.	.	.	8b	.	.	.	.	8B	8B	.	.	.	.
.	.	.	.	8cc	.	.	.	.	8c	8c	.	.	.	.
.	.	2bb	[2dd	8b	.	.	.	.	8B	8B	.	.	.	.
.	.	.	.	8a	.	.	.	.	8A	8A	.	.	.	.
.	.	.	.	8g	.	.	.	.	8G	8G	.	.	.	.
.	.	.	.	8f#	.	.	.	.	8F#	8F#	.	.	.	.
=42	=42	=42	=42	=42	=42	=42	=42	=42	=42	=42	=42	=42	=42	=42
1r	1r	2.ee	2dd]	8g	1r	1r	1r	1r	8G	8G	1r	1r	1r	1r
.	.	.	.	8f#	.	.	.	.	8F#	8F#	.	.	.	.
.	.	.	.	8g	.	.	.	.	8G	8G	.	.	.	.
.	.	.	.	8b	.	.	.	.	8B	8B	.	.	.	.
.	.	.	[2cc	8a	.	.	.	.	8A	8A	.	.	.	.
.	.	.	.	8b	.	.	.	.	8B	8B	.	.	.	.
.	.	8ff#	.	8a	.	.	.	.	8A	8A	.	.	.	.
.	.	8ee	.	8g	.	.	.	.	8G	8G	.	.	.	.
=43	=43	=43	=43	=43	=43	=43	=43	=43	=43	=43	=43	=43	=43	=43
1r	1r	2dd	2cc]	8f#	1r	1r	1r	1r	8F#	8F#	1r	1r	1r	1r
.	.	.	.	8e	.	.	.	.	8E	8E	.	.	.	.
.	.	.	.	8f#	.	.	.	.	8F#	8F#	.	.	.	.
.	.	.	.	8a	.	.	.	.	8A	8A	.	.	.	.
.	.	2gg	[2b	8g	.	.	.	.	8G	8G	.	.	.	.
.	.	.	.	8a	.	.	.	.	8A	8A	.	.	.	.
.	.	.	.	8g	.	.	.	.	8G	8G	.	.	.	.
.	.	.	.	8f#	.	.	.	.	8F#	8F#	.	.	.	.
=44	=44	=44	=44	=44	=44	=44	=44	=44	=44	=44	=44	=44	=44	=44
1r	1r	2.cc	2b]	8e	1r	1r	1r	1r	8E	8E	1r	1r	1r	1r
.	.	.	.	8d	.	.	.	.	8D	8D	.	.	.	.
.	.	.	.	8e	.	.	.	.	8E	8E	.	.	.	.
.	.	.	.	8g	.	.	.	.	8G	8G	.	.	.	.
.	.	.	2a	8f#	.	.	.	.	8F#	8F#	.	.	.	.
.	.	.	.	8e	.	.	.	.	8E	8E	.	.	.	.
.	.	8dd	.	8f#	.	.	.	.	8F#	8F#	.	.	.	.
.	.	8cc	.	8d	.	.	.	.	8D	8D	.	.	.	.
=45	=45	=45	=45	=45	=45	=45	=45	=45	=45	=45	=45	=45	=45	=45
8b	4GG	8b	2g	2g	2.G	2.G	1bb	[1dd	2.G	2.G	1r	1r	[1dd	1g
8dd	.	8dd	.	.	.	.	.	.	.	.	.	.	.	.
8gg	2.r	8gg	.	.	.	.	.	.	.	.	.	.	.	.
8aa	.	8aa	.	.	.	.	.	.	.	.	.	.	.	.
8bb	.	8bb	[2d	2r	.	.	.	.	.	.	.	.	.	.
8ddd	.	8ddd	.	.	.	.	.	.	.	.	.	.	.	.
8ccc	.	8ccc	.	.	8A	8A	.	.	8A	8A	.	.	.	.
8bb	.	8bb	.	.	8G	8G	.	.	8G	8G	.	.	.	.
=46	=46	=46	=46	=46	=46	=46	=46	=46	=46	=46	=46	=46	=46	=46
8aa	1r	8aa	4d]	4r	2F#	2F#	2aa	4dd]	4F#	4F#	1r	1r	2dd]	2dd
8gg	.	8gg	.	.	.	.	.	.	.	.	.	.	.	.
8ff#	.	8ff#	8a	4A	.	.	.	8a	4A	4A	.	.	.	.
8ee	.	8ee	8g	.	.	.	.	8g	.	.	.	.	.	.
8dd	.	8dd	4f#	4d	2B	2B	2dd	4f#	4d	4d	.	.	2r	2r
8cc	.	8cc	.	.	.	.	.	.	.	.	.	.	.	.
8b	.	8b	8g	8e	.	.	.	4r	8e	8e	.	.	.	.
8a	.	8a	8a	8f#	.	.	.	.	8f#	8f#	.	.	.	.
=47	=47	=47	=47	=47	=47	=47	=47	=47	=47	=47	=47	=47	=47	=47
8g	1r	8g	2b	4g	2.E	2.E	1gg	[1b	4g	4g	1r	1r	1r	1r
8b	.	8b	.	.	.	.	.	.	.	.	.	.	.	.
8ee	.	8ee	.	2.r	.	.	.	.	2.r	2.r	.	.	.	.
8ff#	.	8ff#	.	.	.	.	.	.	.	.	.	.	.	.
8gg	.	8gg	[2B	.	.	.	.	.	.	.	.	.	.	.
8bb	.	8bb	.	.	.	.	.	.	.	.	.	.	.	.
8aa	.	8aa	.	.	8F#	8F#	.	.	.	.	.	.	.	.
8gg	.	8gg	.	.	8E	8E	.	.	.	.	.	.	.	.
=48	=48	=48	=48	=48	=48	=48	=48	=48	=48	=48	=48	=48	=48	=48
8ff#	1r	8ff#	4B]	4r	2D	2D	2ff#	4b]	4r	4r	1r	1r	1r	1r
8ee	.	8ee	.	.	.	.	.	.	.	.	.	.	.	.
8dd	.	8dd	8f#	4F#	.	.	.	8f#	4F#	4F#	.	.	.	.
8cc	.	8cc	8e	.	.	.	.	8e	.	.	.	.	.	.
8b	.	8b	4d	4B	2G	2G	2b	4d	4B	4B	.	.	.	.
8a	.	8a	.	.	.	.	.	.	.	.	.	.	.	.
8g	.	8g	8e	8c	.	.	.	4r	8c	8c	.	.	.	.
8f#	.	8f#	8f#	8d	.	.	.	.	8d	8d	.	.	.	.
=49	=49	=49	=49	=49	=49	=49	=49	=49	=49	=49	=49	=49	=49	=49
8e	4C	8e	2g	4e	2.C	2.C	1ee	[1g	4e	4e	1r	1r	1ee	1cc
8g	.	8g	.	.	.	.	.	.	.	.	.	.	.	.
8cc	2.r	8cc	.	2.r	.	.	.	.	2.r	2.r	.	.	.	.
8dd	.	8dd	.	.	.	.	.	.	.	.	.	.	.	.
8ee	.	8ee	[2G	.	.	.	.	.	.	.	.	.	.	.
8gg	.	8gg	.	.	.	.	.	.	.	.	.	.	.	.
8ff#	.	8ff#	.	.	8D	8D	.	.	.	.	.	.	.	.
8ee	.	8ee	.	.	8C	8C	.	.	.	.	.	.	.	.
=50	=50	=50	=50	=50	=50	=50	=50	=50	=50	=50	=50	=50	=50	=50
8dd	4GG	8dd	4G]	2.G	2BB	2BB	2dd	2g]	1r	1r	1r	1r	1dd	1g
8cc	.	8cc	.	.	.	.	.	.	.	.	.	.	.	.
8b	2.r	8b	8d	.	.	.	.	.	.	.	.	.	.	.
8a	.	8a	8c	.	.	.	.	.	.	.	.	.	.	.
8g	.	8g	4B	.	2BB-	2BB-	2gg	2dd	.	.	.	.	.	.
8dd	.	8dd	.	.	.	.	.	.	.	.	.	.	.	.
8ee	.	8ee	4g	8g	.	.	.	.	.	.	.	.	.	.
8dd	.	8dd	.	8f#	.	.	.	.	.	.	.	.	.	.
=51	=51	=51	=51	=51	=51	=51	=51	=51	=51	=51	=51	=51	=51	=51
8cc#	1r	8cc#	8g	1e	1AA	1AA	[1gg	[1cc#	1e	1e	1r	1r	1r	1r
8dd	.	8dd	8f#	.	.	.	.	.	.	.	.	.	.	.
8ee	.	8ee	8e	.	.	.	.	.	.	.	.	.	.	.
8ff#	.	8ff#	8d	.	.	.	.	.	.	.	.	.	.	.
8gg	.	8gg	8c#	.	.	.	.	.	.	.	.	.	.	.
8ff#	.	8ff#	8d	.	.	.	.	.	.	.	.	.	.	.
8ee	.	8ee	8e	.	.	.	.	.	.	.	.	.	.	.
8dd	.	8dd	8f#	.	.	.	.	.	.	.	.	.	.	.
=52	=52	=52	=52	=52	=52	=52	=52	=52	=52	=52	=52	=52	=52	=52
8cc#	1r	8cc#	1g	1e	1A	1A	1gg]	1cc#]	1e	1e	1r	1r	1r	1r
8dd	.	8dd	.	.	.	.	.	.	.	.	.	.	.	.
8ee	.	8ee	.	.	.	.	.	.	.	.	.	.	.	.
8dd	.	8dd	.	.	.	.	.	.	.	.	.	.	.	.
8cc#	.	8cc#	.	.	.	.	.	.	.	.	.	.	.	.
8b	.	8b	.	.	.	.	.	.	.	.	.	.	.	.
8a	.	8a	.	.	.	.	.	.	.	.	.	.	.	.
8g	.	8g	.	.	.	.	.	.	.	.	.	.	.	.
=53	=53	=53	=53	=53	=53	=53	=53	=53	=53	=53	=53	=53	=53	=53
8f#	1r	8f#	1f# 1A	1d	1D	1D	1ff#	[1cc	1d	1d	1r	1r	1r	1r
8d	.	8d	.	.	.	.	.	.	.	.	.	.	.	.
8f#	.	8f#	.	.	.	.	.	.	.	.	.	.	.	.
8a	.	8a	.	.	.	.	.	.	.	.	.	.	.	.
8cc	.	8cc	.	.	.	.	.	.	.	.	.	.	.	.
8a	.	8a	.	.	.	.	.	.	.	.	.	.	.	.
8cc	.	8cc	.	.	.	.	.	.	.	.	.	.	.	.
8ff#	.	8ff#	.	.	.	.	.	.	.	.	.	.	.	.
=54	=54	=54	=54	=54	=54	=54	=54	=54	=54	=54	=54	=54	=54	=54
8aa	1r	8aa	1cc 1d	1A	1FF#	1FF#	1aa	1cc]	1d	1d	1r	1r	1r	1r
8gg	.	8gg	.	.	.	.	.	.	.	.	.	.	.	.
8ff#	.	8ff#	.	.	.	.	.	.	.	.	.	.	.	.
8ee	.	8ee	.	.	.	.	.	.	.	.	.	.	.	.
8dd	.	8dd	.	.	.	.	.	.	.	.	.	.	.	.
8cc	.	8cc	.	.	.	.	.	.	.	.	.	.	.	.
8b	.	8b	.	.	.	.	.	.	.	.	.	.	.	.
8a	.	8a	.	.	.	.	.	.	.	.	.	.	.	.
=55	=55	=55	=55	=55	=55	=55	=55	=55	=55	=55	=55	=55	=55	=55
8b	4GG	8b	8b	4B	4GG	4GG	4bb	1b	1d	1d	4dd	4dd	4dd	4dd
8ddd	.	8ddd	8ddd	.	.	.	.	.	.	.	.	.	.	.
8ccc	2.r	8ccc	8ccc	4B 4d	4G	4G	4ddd	.	.	.	8dd	8dd	8dd	8dd
8bb	.	8bb	8bb	.	.	.	.	.	.	.	8dd	8dd	8dd	8dd
8aa	.	8aa	8aa	4B 4d	4G	4G	4ddd	.	.	.	4dd	4dd	4dd	4dd
8gg	.	8gg	8gg	.	.	.	.	.	.	.	.	.	.	.
8ff#	.	8ff#	8ff#	4B 4d	4G	4G	4ddd	.	.	.	4dd	4dd	4dd	4dd
8ee	.	8ee	8ee	.	.	.	.	.	.	.	.	.	.	.
=56	=56	=56	=56	=56	=56	=56	=56	=56	=56	=56	=56	=56	=56	=56
8dd	4C	8dd	8dd	4F#	4AA	4AA	4ff#	1ff#	1f#	1c	1dd	1dd	1dd	1dd
8ee	.	8ee	8ee	.	.	.	.	.	.	.	.	.	.	.
8dd	2.r	8dd	8dd	4f#	4A	4A	4ddd	.	.	.	.	.	.	.
8cc	.	8cc	8cc	.	.	.	.	.	.	.	.	.	.	.
8b	.	8b	8b	4f#	4A	4A	4ddd	.	.	.	.	.	.	.
8a	.	8a	8a	.	.	.	.	.	.	.	.	.	.	.
8g	.	8g	8g	4a	4A	4A	4ddd	.	.	.	.	.	.	.
8f#	.	8f#	8f#	.	.	.	.	.	.	.	.	.	.	.
=57	=57	=57	=57	=57	=57	=57	=57	=57	=57	=57	=57	=57	=57	=57
8g	4GG	8g	8g	4g	4BB	4BB	4gg	1gg	1g	1B	4dd	4dd	4dd	4dd
8a	.	8a	8a	.	.	.	.	.	.	.	.	.	.	.
8b	2.r	8b	8b	4d	4B	4B	4ddd	.	.	.	8dd	8dd	8dd	8dd
8cc	.	8cc	8cc	.	.	.	.	.	.	.	8dd	8dd	8dd	8dd
8dd	.	8dd	8dd	4d	4B	4B	4ddd	.	.	.	4dd	4dd	4dd	4dd
8ee	.	8ee	8ee	.	.	.	.	.	.	.	.	.	.	.
8ff#	.	8ff#	8ff#	4d	4B	4B	4ddd	.	.	.	4dd	4dd	4dd	4dd
8gg	.	8gg	8gg	.	.	.	.	.	.	.	.	.	.	.
=58	=58	=58	=58	=58	=58	=58	=58	=58	=58	=58	=58	=58	=58	=58
8ff#	4C	8ff#	8ff#	4d 4A	4C	4C	4aa	1ff#	[1d	[1d	1dd	1dd	1dd	1dd
8gg	.	8gg	8gg	.	.	.	.	.	.	.	.	.	.	.
8aa	2.r	8aa	8aa	4d 4A	4c	4c	4ddd	.	.	.	.	.	.	.
8gg	.	8gg	8gg	.	.	.	.	.	.	.	.	.	.	.
8ff#	.	8ff#	8ff#	4d 4A	4c	4c	4ddd	.	.	.	.	.	.	.
8dd	.	8dd	8dd	.	.	.	.	.	.	.	.	.	.	.
8ee	.	8ee	8ee	4A 4d	4c	4c	4ddd	.	.	.	.	.	.	.
8ff#	.	8ff#	8ff#	.	.	.	.	.	.	.	.	.	.	.
=59	=59	=59	=59	=59	=59	=59	=59	=59	=59	=59	=59	=59	=59	=59
8gg	4GG	8gg	8gg	4d 4B	4GG	4GG	1bb	1gg	1d]	1d]	4dd	4dd	4dd	4dd
8ddd	.	8ddd	8ddd	.	.	.	.	.	.	.	.	.	.	.
8ccc	2.r	8ccc	8ccc	4B 4d	4G	4G	.	.	.	.	8dd	8dd	8dd	8dd
8bb	.	8bb	8bb	.	.	.	.	.	.	.	8dd	8dd	8dd	8dd
8aa	.	8aa	8aa	4d 4B	4G	4G	.	.	.	.	4dd	4dd	4dd	4dd
8gg	.	8gg	8gg	.	.	.	.	.	.	.	.	.	.	.
8ff#	.	8ff#	8ff#	4B 4d	4G	4G	.	.	.	.	4dd	4dd	4dd	4dd
8ee	.	8ee	8ee	.	.	.	.	.	.	.	.	.	.	.
=60	=60	=60	=60	=60	=60	=60	=60	=60	=60	=60	=60	=60	=60	=60
8dd	4C	8dd	8dd	4F#	4AA	4AA	1ccc	1ff#	1f#	1d	1dd	1dd	1dd	1dd
8ee	.	8ee	8ee	.	.	.	.	.	.	.	.	.	.	.
8dd	2.r	8dd	8dd	4f#	4A	4A	.	.	.	.	.	.	.	.
8cc	.	8cc	8cc	.	.	.	.	.	.	.	.	.	.	.
8b	.	8b	8b	4f#	4A	4A	.	.	.	.	.	.	.	.
8a	.	8a	8a	.	.	.	.	.	.	.	.	.	.	.
8g	.	8g	8g	4a	4A	4A	.	.	.	.	.	.	.	.
8f#	.	8f#	8f#	.	.	.	.	.	.	.	.	.	.	.
=61	=61	=61	=61	=61	=61	=61	=61	=61	=61	=61	=61	=61	=61	=61
8g	4GG	8g	8g	4g	4BB	4BB	1ddd	1gg	1g	1d	4dd	4dd	4dd	4dd
8a	.	8a	8a	.	.	.	.	.	.	.	.	.	.	.
8b	8GG	8b	8b	4d	4B	4B	.	.	.	.	8dd	8dd	8dd	8dd
8cc	8GG	8cc	8cc	.	.	.	.	.	.	.	8dd	8dd	8dd	8dd
8dd	4GG	8dd	8dd	4d	4B	4B	.	.	.	.	4dd	4dd	4dd	4dd
8ee	.	8ee	8ee	.	.	.	.	.	.	.	.	.	.	.
8ff#	4GG	8ff#	8ff#	4d	4B	4B	.	.	.	.	4dd	4dd	4dd	4dd
8gg	.	8gg	8gg	.	.	.	.	.	.	.	.	.	.	.
=62	=62	=62	=62	=62	=62	=62	=62	=62	=62	=62	=62	=62	=62	=62
8ff#	4C	8ff#	8ff#	4d 4A	4C	4C	1ccc	1aa	1d	1d	1dd	1dd	1dd	1dd
8gg	.	8gg	8gg	.	.	.	.	.	.	.	.	.	.	.
8aa	8C	8aa	8aa	4d 4A	4c	4c	.	.	.	.	.	.	.	.
8gg	8C	8gg	8gg	.	.	.	.	.	.	.	.	.	.	.
8ff#	4C	8ff#	8ff#	4d 4A	4c	4c	.	.	.	.	.	.	.	.
8dd	.	8dd	8dd	.	.	.	.	.	.	.	.	.	.	.
8ee	4C	8ee	8ee	4d 4A	4c	4c	.	.	.	.	.	.	.	.
8ff#	.	8ff#	8ff#	.	.	.	.	.	.	.	.	.	.	.
=63	=63	=63	=63	=63	=63	=63	=63	=63	=63	=63	=63	=63	=63	=63
8gg	4GG	8gg	8gg	4d 4B	4B	4B	2bb	2gg	2d	2G	4dd	4g	4dd	4g
8gg	.	8gg	8gg	.	.	.	.	.	.	.	.	.	.	.
8bb	2.r	8bb	8b	4g	4B	4B	.	.	.	.	2.r	2.r	2.r	2.r
8bb	.	8bb	8b	.	.	.	.	.	.	.	.	.	.	.
8aa	.	8aa	8a	4g	4B	4B	2r	2r	2r	2r	.	.	.	.
8aa	.	8aa	8a	.	.	.	.	.	.	.	.	.	.	.
8ff#	.	8ff#	8f#	4g	4B	4B	.	.	.	.	.	.	.	.
8ff#	.	8ff#	8f#	.	.	.	.	.	.	.	.	.	.	.
=64	=64	=64	=64	=64	=64	=64	=64	=64	=64	=64	=64	=64	=64	=64
8gg	1r	8gg	8g	4g	4B	4B	1r	1r	1r	1r	1r	1r	1r	1r
8gg	.	8gg	8g	.	.	.	.	.	.	.	.	.	.	.
8ee	.	8ee	8e	4g	4B	4B	.	.	.	.	.	.	.	.
8ee	.	8ee	8e	.	.	.	.	.	.	.	.	.	.	.
8ff	.	8ff	8f	4g	4B	4B	.	.	.	.	.	.	.	.
8ff	.	8ff	8f	.	.	.	.	.	.	.	.	.	.	.
8dd#	.	8dd#	8d#	4g	4B	4B	.	.	.	.	.	.	.	.
8dd#	.	8dd#	8d#	.	.	.	.	.	.	.	.	.	.	.
=65	=65	=65	=65	=65	=65	=65	=65	=65	=65	=65	=65	=65	=65	=65
8ee	2C	8ee	8e	4g	4c	4c	1r	1r	2e	2c	2ee	2cc	2ee	2cc
8ee	.	8ee	8e	.	.	.	.	.	.	.	.	.	.	.
8ccc	.	8ccc	8cc	4g	4c	4c	.	.	.	.	.	.	.	.
8ccc	.	8ccc	8cc	.	.	.	.	.	.	.	.	.	.	.
8bb	2r	8bb	8b	4g	4c	4c	.	.	2r	2r	2r	2r	2r	2r
8bb	.	8bb	8b	.	.	.	.	.	.	.	.	.	.	.
8gg#	.	8gg#	8g#	4g#	4c	4c	.	.	.	.	.	.	.	.
8gg#	.	8gg#	8g#	.	.	.	.	.	.	.	.	.	.	.
=66	=66	=66	=66	=66	=66	=66	=66	=66	=66	=66	=66	=66	=66	=66
8aa	1r	8aa	8a	4a	4c	4c	1r	1r	1r	1r	1r	1r	1r	1r
8aa	.	8aa	8a	.	.	.	.	.	.	.	.	.	.	.
8ff#	.	8ff#	8f#	4a	4c	4c	.	.	.	.	.	.	.	.
8ff#	.	8ff#	8f#	.	.	.	.	.	.	.	.	.	.	.
8gg	.	8gg	8g	4c#	4c#	4c#	.	.	.	.	.	.	.	.
8gg	.	8gg	8g	.	.	.	.	.	.	.	.	.	.	.
8ee	.	8ee	8e	4c#	4c#	4c#	.	.	.	.	.	.	.	.
8ee	.	8ee	8e	.	.	.	.	.	.	.	.	.	.	.
=67	=67	=67	=67	=67	=67	=67	=67	=67	=67	=67	=67	=67	=67	=67
8ff#	1r	8ff#	8f#	4d	4d	4d	1r	1r	1r	1r	2dd	2dd	2dd	2dd
8ff#	.	8ff#	8f#	.	.	.	.	.	.	.	.	.	.	.
8ddd	.	8ddd	8dd	4dd	4d	4d	.	.	.	.	.	.	.	.
8ddd	.	8ddd	8dd	.	.	.	.	.	.	.	.	.	.	.
8eee-	.	8eee-	8ee-	4ee-	4e-	4e-	.	.	.	.	2r	2r	2r	2r
8eee-	.	8eee-	8ee-	.	.	.	.	.	.	.	.	.	.	.
8ccc#	.	8ccc#	8cc#	4cc#	4c#	4c#	.	.	.	.	.	.	.	.
8ccc#	.	8ccc#	8cc#	.	.	.	.	.	.	.	.	.	.	.
=68	=68	=68	=68	=68	=68	=68	=68	=68	=68	=68	=68	=68	=68	=68
8ddd	1r	8ddd	8dd	4dd	4d	4d	1r	1r	1r	1r	1r	1r	1r	1r
8ddd	.	8ddd	8dd	.	.	.	.	.	.	.	.	.	.	.
8aa	.	8aa	8a	4a	4A	4A	.	.	.	.	.	.	.	.
8aa	.	8aa	8a	.	.	.	.	.	.	.	.	.	.	.
8bb-	.	8bb-	8b-	4b-	4B-	4B-	.	.	.	.	.	.	.	.
8bb-	.	8bb-	8b-	.	.	.	.	.	.	.	.	.	.	.
8ff#	.	8ff#	8f#	4f#	4F#	4F#	.	.	.	.	.	.	.	.
8ff#	.	8ff#	8f#	.	.	.	.	.	.	.	.	.	.	.
=69	=69	=69	=69	=69	=69	=69	=69	=69	=69	=69	=69	=69	=69	=69
8gg	1r	8gg	8g	4g	4G	4G	1r	1r	1r	1r	1r	1r	1r	1r
8gg	.	8gg	8g	.	.	.	.	.	.	.	.	.	.	.
8dd	.	8dd	8d	4d	4D	4D	.	.	.	.	.	.	.	.
8dd	.	8dd	8d	.	.	.	.	.	.	.	.	.	.	.
8ee-	.	8ee-	8e-	4e-	4E-	4E-	.	.	.	.	.	.	.	.
8ee-	.	8ee-	8e-	.	.	.	.	.	.	.	.	.	.	.
8cc#	.	8cc#	8c#	4c#	4C#	4C#	.	.	.	.	.	.	.	.
8cc#	.	8cc#	8c#	.	.	.	.	.	.	.	.	.	.	.
=70	=70	=70	=70	=70	=70	=70	=70	=70	=70	=70	=70	=70	=70	=70
8dd	1r	8dd	8d	4d	4D	4D	1r	1r	1r	1r	1r	1r	1r	1r
8dd	.	8dd	8d	.	.	.	.	.	.	.	.	.	.	.
8a	.	8a	8A	4A	4AA	4AA	.	.	.	.	.	.	.	.
8a	.	8a	8A	.	.	.	.	.	.	.	.	.	.	.
8b-	.	8b-	8B-	4B-	4BB-	4BB-	.	.	.	.	.	.	.	.
8b-	.	8b-	8B-	.	.	.	.	.	.	.	.	.	.	.
8g	.	8g	8G	4B-	4GG	4GG	.	.	.	.	.	.	.	.
8g	.	8g	8G	.	.	.	.	.	.	.	.	.	.	.
=71	=71	=71	=71	=71	=71	=71	=71	=71	=71	=71	=71	=71	=71	=71
1ee-	4GG	8e- 8G	8B-	8B-	1EE-	1EE-	[1b-	[1g	[1B-	[1G	[1g	[1g	[1g	[1g
.	.	8e- 8G	8B-	8B-	.	.	.	.	.	.	.	.	.	.
.	8GG	8G 8e-	8B-	8B-	.	.	.	.	.	.	.	.	.	.
.	8GG	8G 8e-	8B-	8B-	.	.	.	.	.	.	.	.	.	.
.	4GG	8G 8e-	8B-	8B-	.	.	.	.	.	.	.	.	.	.
.	.	8G 8e-	8B-	8B-	.	.	.	.	.	.	.	.	.	.
.	4GG	8G 8e-	8B-	8B-	.	.	.	.	.	.	.	.	.	.
.	.	8G 8e-	8B-	8B-	.	.	.	.	.	.	.	.	.	.
=72	=72	=72	=72	=72	=72	=72	=72	=72	=72	=72	=72	=72	=72	=72
1cc#	4GG	8c#	8G	8B-	1EE-	1EE-	1b-]	1g]	1B-]	1G]	1g]	1g]	1g]	1g]
.	.	8c#	8G	8B-	.	.	.	.	.	.	.	.	.	.
.	8GG	8c#	8G	8B-	.	.	.	.	.	.	.	.	.	.
.	8GG	8c#	8G	8B-	.	.	.	.	.	.	.	.	.	.
.	4GG	8c#	8G	8B-	.	.	.	.	.	.	.	.	.	.
.	.	8c#	8G	8B-	.	.	.	.	.	.	.	.	.	.
.	4GG	8c#	8G	8G	.	.	.	.	.	.	.	.	.	.
.	.	8c#	8G	8G	.	.	.	.	.	.	.	.	.	.
=73	=73	=73	=73	=73	=73	=73	=73	=73	=73	=73	=73	=73	=73	=73
1dd	4GG	8d	8B	1D	4DD	4DD	1b	1g	1B	1G	[1dd	[1dd	[1dd	[1dd
.	.	8d	8B	.	.	.	.	.	.	.	.	.	.	.
.	2.r	8g	8d	.	4DD	4DD	.	.	.	.	.	.	.	.
.	.	8g	8d	.	.	.	.	.	.	.	.	.	.	.
.	.	8b	8g	.	4DD	4DD	.	.	.	.	.	.	.	.
.	.	8b	8g	.	.	.	.	.	.	.	.	.	.	.
.	.	8dd	8b	.	4DD	4DD	.	.	.	.	.	.	.	.
.	.	8dd	8b	.	.	.	.	.	.	.	.	.	.	.
=74	=74	=74	=74	=74	=74	=74	=74	=74	=74	=74	=74	=74	=74	=74
1aa	1r	8ff#	8cc	1D	4DD	4DD	1cc	1f#	1A	1F#	1dd]	1dd]	1dd]	1dd]
.	.	8ff#	8cc	.	.	.	.	.	.	.	.	.	.	.
.	.	8aa	8a	.	4DD	4DD	.	.	.	.	.	.	.	.
.	.	8aa	8a	.	.	.	.	.	.	.	.	.	.	.
.	.	8ccc	8f#	.	4DD	4DD	.	.	.	.	.	.	.	.
.	.	8ccc	8f#	.	.	.	.	.	.	.	.	.	.	.
.	.	8ff#	8a	.	4DD	4DD	.	.	.	.	.	.	.	.
.	.	8ff#	8a	.	.	.	.	.	.	.	.	.	.	.
=75	=75	=75	=75	=75	=75	=75	=75	=75	=75	=75	=75	=75	=75	=75
4bb	4GG	8bb	8gg	4G	4GG	4GG	4b	4g	4G	4G	4dd	4g	4dd	4g
.	.	8aa	8ff#	.	.	.	.	.	.	.	.	.	.	.
2.r	2.r	8gg	8ee	4r	4r	4r	4r	4r	4r	4r	4r	4r	4r	4r
.	.	8ff#	8dd	.	.	.	.	.	.	.	.	.	.	.
.	.	8ee	8cc	4c	4C	4C	4ee	4g	4C	4C	4ee	4cc	4ee	4cc
.	.	8dd	8b	.	.	.	.	.	.	.	.	.	.	.
.	.	8cc	8a	4r	4r	4r	4r	4r	4r	4r	4r	4r	4r	4r
.	.	8b	8g	.	.	.	.	.	.	.	.	.	.	.
=76	=76	=76	=76	=76	=76	=76	=76	=76	=76	=76	=76	=76	=76	=76
1r	1r	8a	8f#	8d	4D	4D	4dd	4f#	4D	4D	4dd	4dd	4dd	4dd
.	.	8g	8g	8e	.	.	.	.	.	.	.	.	.	.
.	.	8f#	8f#	8d	2.r	2.r	2.r	2.r	2.r	2.r	8dd	8dd	8dd	8dd
.	.	8e	8e	8c	.	.	.	.	.	.	8dd	8dd	8dd	8dd
.	.	8d	8d	8B	.	.	.	.	.	.	4dd	4dd	4dd	4dd
.	.	8c	8c	8A	.	.	.	.	.	.	.	.	.	.
.	.	8B	8B	8G	.	.	.	.	.	.	4dd	4dd	4dd	4dd
.	.	8A	8A	8F#	.	.	.	.	.	.	.	.	.	.
=77	=77	=77	=77	=77	=77	=77	=77	=77	=77	=77	=77	=77	=77	=77
8ddd	4GG	8ddd	8bb	4G	4BB	4BB	4gg	4g	4BB	4BB	4dd	4g	4dd	4g
8ccc	.	8ccc	8aa	.	.	.	.	.	.	.	.	.	.	.
8bb	2.r	8bb	8gg	4r	4r	4r	4r	4r	4r	4r	4r	4r	4r	4r
8aa	.	8aa	8ff#	.	.	.	.	.	.	.	.	.	.	.
8gg	.	8gg	8ee	4c	4C	4C	4ee	4g	4C	4C	4ee	4cc	4ee	4cc
8ff#	.	8ff#	8dd	.	.	.	.	.	.	.	.	.	.	.
8ee	.	8ee	8cc	4r	4r	4r	4r	4r	4r	4r	4r	4r	4r	4r
8dd	.	8dd	8b	.	.	.	.	.	.	.	.	.	.	.
=78	=78	=78	=78	=78	=78	=78	=78	=78	=78	=78	=78	=78	=78	=78
8cc	1r	8cc	8a	4A 4f# 4D	4D	4D	4cc	4f#	1D	1D	4dd	4dd	4dd	4dd
8b	.	8b	8g	.	.	.	.	.	.	.	.	.	.	.
8a	.	8a	8f#	2.r	2.r	2.r	2r	2r	.	.	8dd	8dd	8dd	8dd
8g	.	8g	8e	.	.	.	.	.	.	.	8dd	8dd	8dd	8dd
8f#	.	8f#	8d	.	.	.	.	.	.	.	4dd	4dd	4dd	4dd
8e	.	8e	8c	.	.	.	.	.	.	.	.	.	.	.
8d	.	8d	8B	.	.	.	4ff#	4a	.	.	4dd	4dd	4dd	4dd
8f#	.	8c	8A	.	.	.	.	.	.	.	.	.	.	.
=79	=79	=79	=79	=79	=79	=79	=79	=79	=79	=79	=79	=79	=79	=79
4g	4GG	2B	2.b	2.g	2GG	2GG	4gg	4b	2GG	2GG	2dd	2g	2dd	2g
2.r	2.r	.	.	.	.	.	2.r	2.r	.	.	.	.	.	.
.	.	[2ee	.	.	2r	2r	.	.	2r	2r	2r	2r	2r	2r
.	.	.	8cc	8a	.	.	.	.	.	.	.	.	.	.
.	.	.	8b	8g	.	.	.	.	.	.	.	.	.	.
=80	=80	=80	=80	=80	=80	=80	=80	=80	=80	=80	=80	=80	=80	=80
1r	1r	4ee]	2a	2f#	1r	1r	1r	1r	1r	1r	1r	1r	1r	1r
.	.	8ff#	.	.	.	.	.	.	.	.	.	.	.	.
.	.	8ee	.	.	.	.	.	.	.	.	.	.	.	.
.	.	2dd	2dd	2b	.	.	.	.	.	.	.	.	.	.
=81	=81	=81	=81	=81	=81	=81	=81	=81	=81	=81	=81	=81	=81	=81
1r	1r	2gg	2.g	2.e	1r	1r	1r	1r	2.e	2.e	1r	1r	1r	1r
.	.	[2cc	.	.	.	.	.	.	.	.	.	.	.	.
.	.	.	8a	8f#	.	.	.	.	8f#	8f#	.	.	.	.
.	.	.	8g	8e	.	.	.	.	8e	8e	.	.	.	.
=82	=82	=82	=82	=82	=82	=82	=82	=82	=82	=82	=82	=82	=82	=82
1r	1r	4cc]	2f#	2d	1r	1r	1r	1r	2d	2d	1r	1r	1r	1r
.	.	8dd	.	.	.	.	.	.	.	.	.	.	.	.
.	.	8cc	.	.	.	.	.	.	.	.	.	.	.	.
.	.	2b	2b	2g	.	.	.	.	2g	2g	.	.	.	.
=83	=83	=83	=83	=83	=83	=83	=83	=83	=83	=83	=83	=83	=83	=83
1r	1r	2ee	2.e	2.c	1r	1r	1r	1r	2.c	2.c	1r	1r	1r	1r
.	.	[2a	.	.	.	.	.	.	.	.	.	.	.	.
.	.	.	8f#	8d	.	.	.	.	8d	8d	.	.	.	.
.	.	.	8e	8c	.	.	.	.	8c	8c	.	.	.	.
=84	=84	=84	=84	=84	=84	=84	=84	=84	=84	=84	=84	=84	=84	=84
1r	1r	4a]	2d	2B	1r	1r	1r	1r	2B	2B	1r	1r	1r	1r
.	.	8b	.	.	.	.	.	.	.	.	.	.	.	.
.	.	8a	.	.	.	.	.	.	.	.	.	.	.	.
.	.	4g	[2g	2e	.	.	.	.	2e	2e	.	.	.	.
.	.	8a	.	.	.	.	.	.	.	.	.	.	.	.
.	.	8b	.	.	.	.	.	.	.	.	.	.	.	.
=85	=85	=85	=85	=85	=85	=85	=85	=85	=85	=85	=85	=85	=85	=85
1r	1r	8cc	2g]	2A	1r	1r	1r	1r	2A	2A	1r	1r	1r	1r
.	.	8b	.	.	.	.	.	.	.	.	.	.	.	.
.	.	8a	.	.	.	.	.	.	.	.	.	.	.	.
.	.	8g	.	.	.	.	.	.	.	.	.	.	.	.
.	.	8f#	2f#	2d	.	.	.	.	2d	2d	.	.	.	.
.	.	8ee	.	.	.	.	.	.	.	.	.	.	.	.
.	.	8dd	.	.	.	.	.	.	.	.	.	.	.	.
.	.	8cc	.	.	.	.	.	.	.	.	.	.	.	.
=86	=86	=86	=86	=86	=86	=86	=86	=86	=86	=86	=86	=86	=86	=86
1r	1r	8b	8g	[1G	1r	1r	1r	1r	1G	1G	1r	1r	1r	1r
.	.	8a	8f#	.	.	.	.	.	.	.	.	.	.	.
.	.	8g	8g	.	.	.	.	.	.	.	.	.	.	.
.	.	8a	8f#	.	.	.	.	.	.	.	.	.	.	.
.	.	8b	8g	.	.	.	.	.	.	.	.	.	.	.
.	.	8cc	8a	.	.	.	.	.	.	.	.	.	.	.
.	.	8dd	8b	.	.	.	.	.	.	.	.	.	.	.
.	.	8ee	8cc	.	.	.	.	.	.	.	.	.	.	.
=87	=87	=87	=87	=87	=87	=87	=87	=87	=87	=87	=87	=87	=87	=87
1r	1r	8ff	8dd	1G]	1r	1r	1r	1r	1GG	1GG	1r	1r	1r	1r
.	.	8ee	8cc	.	.	.	.	.	.	.	.	.	.	.
.	.	8dd	8b	.	.	.	.	.	.	.	.	.	.	.
.	.	8cc	8cc	.	.	.	.	.	.	.	.	.	.	.
.	.	8b	8dd	.	.	.	.	.	.	.	.	.	.	.
.	.	8aa	8ff	.	.	.	.	.	.	.	.	.	.	.
.	.	8gg	8ee	.	.	.	.	.	.	.	.	.	.	.
.	.	8ff	8dd	.	.	.	.	.	.	.	.	.	.	.
=88	=88	=88	=88	=88	=88	=88	=88	=88	=88	=88	=88	=88	=88	=88
[2ee	2C	2ee	8ee	2.c	2.c	2.c	2cc	2.ee	2.c	2.c	2cc	2e	2cc	2e
.	.	.	8e	.	.	.	.	.	.	.	.	.	.	.
.	.	.	8g	.	.	.	.	.	.	.	.	.	.	.
.	.	.	8cc	.	.	.	.	.	.	.	.	.	.	.
8ee]	2r	[2aa	8ee	.	.	.	[2aa	.	.	.	2r	2r	2r	2r
8gg	.	.	8gg	.	.	.	.	.	.	.	.	.	.	.
8ff	.	.	8ff	8d	8d	8d	.	8ff	8d	8d	.	.	.	.
8ee	.	.	8ee	8c	8c	8c	.	8ee	8c	8c	.	.	.	.
=89	=89	=89	=89	=89	=89	=89	=89	=89	=89	=89	=89	=89	=89	=89
8dd	1r	4aa]	8dd	2B	2B	2B	4aa]	1dd	2B	2B	1r	1r	1r	1r
8ff#	.	.	8ff#	.	.	.	.	.	.	.	.	.	.	.
8gg	.	8bb	8gg	.	.	.	8bb	.	.	.	.	.	.	.
8ff#	.	8aa	8ff#	.	.	.	8aa	.	.	.	.	.	.	.
8gg	.	2gg	8gg	2e	2e	2e	[2gg	.	2e	2e	.	.	.	.
8ff	.	.	8ff	.	.	.	.	.	.	.	.	.	.	.
8ee	.	.	8ee	.	.	.	.	.	.	.	.	.	.	.
8dd	.	.	8dd	.	.	.	.	.	.	.	.	.	.	.
=90	=90	=90	=90	=90	=90	=90	=90	=90	=90	=90	=90	=90	=90	=90
2cc	1r	2ccc	8cc	2.A	2.A	2.A	2gg]	2.cc	2.A	2.A	1r	1r	1r	1r
.	.	.	8c	.	.	.	.	.	.	.	.	.	.	.
.	.	.	8e	.	.	.	.	.	.	.	.	.	.	.
.	.	.	8a	.	.	.	.	.	.	.	.	.	.	.
8ccc	.	[2ff	8cc	.	.	.	[2ff	.	.	.	.	.	.	.
8eee	.	.	8ee	.	.	.	.	.	.	.	.	.	.	.
8ddd	.	.	8dd	8B	8B	8B	.	8dd	8B	8B	.	.	.	.
8ccc	.	.	8cc	8A	8A	8A	.	8cc	8A	8A	.	.	.	.
=91	=91	=91	=91	=91	=91	=91	=91	=91	=91	=91	=91	=91	=91	=91
8bb	1r	4ff]	8b	2G	2G	2G	4ff]	1b	2G	2G	1r	1r	1r	1r
8ddd#	.	.	8dd#	.	.	.	.	.	.	.	.	.	.	.
8eee	.	8gg	8ee	.	.	.	8gg	.	.	.	.	.	.	.
8ddd#	.	8ff	8dd#	.	.	.	8ff	.	.	.	.	.	.	.
8eee	.	2ee	8ee	2c	2c	2c	[2ee	.	2c	2c	.	.	.	.
8ddd	.	.	8dd	.	.	.	.	.	.	.	.	.	.	.
8ccc	.	.	8cc	.	.	.	.	.	.	.	.	.	.	.
8bb	.	.	8b	.	.	.	.	.	.	.	.	.	.	.
=92	=92	=92	=92	=92	=92	=92	=92	=92	=92	=92	=92	=92	=92	=92
2aa	1r	2aa	8a	2.f	2.F	2.F	2ee]	2.a	2.F	2.F	1r	1r	1r	1r
.	.	.	8A	.	.	.	.	.	.	.	.	.	.	.
.	.	.	8c	.	.	.	.	.	.	.	.	.	.	.
.	.	.	8f	.	.	.	.	.	.	.	.	.	.	.
2r	.	[2dd	8a	.	.	.	[2dd	.	.	.	.	.	.	.
.	.	.	8cc	.	.	.	.	.	.	.	.	.	.	.
.	.	.	8b	8g	8G	8G	.	8b	8G	8G	.	.	.	.
.	.	.	8a	8f	8F	8F	.	8a	8F	8F	.	.	.	.
=93	=93	=93	=93	=93	=93	=93	=93	=93	=93	=93	=93	=93	=93	=93
8gg	1r	4dd]	8g	2e	2E	2E	4dd]	1g	2E	2E	1r	1r	1r	1r
8bb	.	.	8b	.	.	.	.	.	.	.	.	.	.	.
8ccc	.	8ee	8cc	.	.	.	8ee	.	.	.	.	.	.	.
8bb	.	8dd	8b	.	.	.	8dd	.	.	.	.	.	.	.
8ccc	.	4cc	8cc	2a	2A	2A	4cc	.	2A	2A	.	.	.	.
8bb-	.	.	8b-	.	.	.	.	.	.	.	.	.	.	.
8aa	.	8dd	8a	.	.	.	8dd	.	.	.	.	.	.	.
8gg	.	8ee	8g	.	.	.	8ee	.	.	.	.	.	.	.
=94	=94	=94	=94	=94	=94	=94	=94	=94	=94	=94	=94	=94	=94	=94
1ff	1r	8ff	1f	1d	1D	1D	1ff	2f	1D	1D	1r	1r	1r	1r
.	.	8b-	.	.	.	.	.	.	.	.	.	.	.	.
.	.	8a	.	.	.	.	.	.	.	.	.	.	.	.
.	.	8b-	.	.	.	.	.	.	.	.	.	.	.	.
.	.	8a	.	.	.	.	.	[2b-	.	.	.	.	.	.
.	.	8b-	.	.	.	.	.	.	.	.	.	.	.	.
.	.	8a	.	.	.	.	.	.	.	.	.	.	.	.
.	.	8b-	.	.	.	.	.	.	.	.	.	.	.	.
=95	=95	=95	=95	=95	=95	=95	=95	=95	=95	=95	=95	=95	=95	=95
1ccc	1r	8gg	1g 1c	1c	1E	1E	[1gg	2b-]	1E	1E	1r	1r	1r	1r
.	.	8b-	.	.	.	.	.	.	.	.	.	.	.	.
.	.	8a	.	.	.	.	.	.	.	.	.	.	.	.
.	.	8b-	.	.	.	.	.	.	.	.	.	.	.	.
.	.	8a	.	.	.	.	.	[2cc	.	.	.	.	.	.
.	.	8b-	.	.	.	.	.	.	.	.	.	.	.	.
.	.	8a	.	.	.	.	.	.	.	.	.	.	.	.
.	.	8b-	.	.	.	.	.	.	.	.	.	.	.	.
=96	=96	=96	=96	=96	=96	=96	=96	=96	=96	=96	=96	=96	=96	=96
1aa	1r	2a	2f 2c	[1c	8F	8F	2gg]	2cc]	8F	8F	1r	1r	1r	1r
.	.	.	.	.	8E	8E	.	.	8E	8E	.	.	.	.
.	.	.	.	.	8F	8F	.	.	8F	8F	.	.	.	.
.	.	.	.	.	8G	8G	.	.	8G	8G	.	.	.	.
.	.	2aa	[2ff	.	8A	8A	[2ff	2aa	8A	8A	.	.	.	.
.	.	.	.	.	8G	8G	.	.	8G	8G	.	.	.	.
.	.	.	.	.	8A	8A	.	.	8A	8A	.	.	.	.
.	.	.	.	.	8B	8B	.	.	8B	8B	.	.	.	.
=97	=97	=97	=97	=97	=97	=97	=97	=97	=97	=97	=97	=97	=97	=97
1gg	1r	1gg	2ff]	2c]	8c	8c	2ff]	1gg	8c	8c	1r	1r	1r	1r
.	.	.	.	.	8B	8B	.	.	8B	8B	.	.	.	.
.	.	.	.	.	8c	8c	.	.	8c	8c	.	.	.	.
.	.	.	.	.	8d	8d	.	.	8d	8d	.	.	.	.
.	.	.	[2ee	2c#	8e	8e	[2ee	.	8e	8e	.	.	.	.
.	.	.	.	.	8d	8d	.	.	8d	8d	.	.	.	.
.	.	.	.	.	8e	8e	.	.	8e	8e	.	.	.	.
.	.	.	.	.	8c#	8c#	.	.	8c#	8c#	.	.	.	.
=98	=98	=98	=98	=98	=98	=98	=98	=98	=98	=98	=98	=98	=98	=98
1ff	1r	1ff	2ee]	8d	8d	8d	2ee]	1ff	8d	8d	1r	1r	1r	1r
.	.	.	.	8e	8e	8e	.	.	8e	8e	.	.	.	.
.	.	.	.	8d	8d	8d	.	.	8d	8d	.	.	.	.
.	.	.	.	8c	8c	8c	.	.	8c	8c	.	.	.	.
.	.	.	[2dd	8B	8B	8B	[2dd	.	8B	8B	.	.	.	.
.	.	.	.	8c	8c	8c	.	.	8c	8c	.	.	.	.
.	.	.	.	8B	8B	8B	.	.	8B	8B	.	.	.	.
.	.	.	.	8A	8A	8A	.	.	8A	8A	.	.	.	.
=99	=99	=99	=99	=99	=99	=99	=99	=99	=99	=99	=99	=99	=99	=99
2ee	1r	1ee	2dd]	2G#	8G#	8G#	2dd]	[1ee	8G#	8G#	1r	1r	1r	1r
.	.	.	.	.	8E	8E	.	.	8E	8E	.	.	.	.
.	.	.	.	.	8F#	8F#	.	.	8F#	8F#	.	.	.	.
.	.	.	.	.	8G#	8G#	.	.	8G#	8G#	.	.	.	.
[2eee	.	.	4cc	4A	8A	8A	4cc	.	8A	8A	.	.	.	.
.	.	.	.	.	8B	8B	.	.	8B	8B	.	.	.	.
.	.	.	4b	4B	8A	8A	4b	.	8A	8A	.	.	.	.
.	.	.	.	.	8G	8G	.	.	8G	8G	.	.	.	.
=100	=100	=100	=100	=100	=100	=100	=100	=100	=100	=100	=100	=100	=100	=100
2eee]	1r	8aa	2a	2c	2F	2F	2a	2ee]	2F	2F	1r	1r	1r	1r
.	.	8gg#	.	.	.	.	.	.	.	.	.	.	.	.
.	.	8aa	.	.	.	.	.	.	.	.	.	.	.	.
.	.	8gg#	.	.	.	.	.	.	.	.	.	.	.	.
2ddd#	.	8aa	2d#	2A	2FF	2FF	2aa	2dd#	2FF	2FF	.	.	.	.
.	.	8ccc	.	.	.	.	.	.	.	.	.	.	.	.
.	.	8bb	.	.	.	.	.	.	.	.	.	.	.	.
.	.	8aa	.	.	.	.	.	.	.	.	.	.	.	.
=101	=101	=101	=101	=101	=101	=101	=101	=101	=101	=101	=101	=101	=101	=101
[1eee	1r	8gg#	2.e	2.e	2.EE	2.EE	2.gg#	2.ee	2.EE	2.EE	2.ee	2.e	2.ee	2.e
.	.	8ee	.	.	.	.	.	.	.	.	.	.	.	.
.	.	8gg#	.	.	.	.	.	.	.	.	.	.	.	.
.	.	8bb	.	.	.	.	.	.	.	.	.	.	.	.
.	.	4eee	.	.	.	.	.	.	.	.	.	.	.	.
.	.	4ccc	4aa	4d#	4E	4E	4aa	4cc	4E	4E	4ee	4e	4ee	4e
=102	=102	=102	=102	=102	=102	=102	=102	=102	=102	=102	=102	=102	=102	=102
1eee_	1r	4bb	4gg#	4e	4E	4E	4gg#	4b	4E	4E	4ee	4e	4ee	4e
.	.	4ccc	4aa	4d#	4E	4E	4aa	4cc	4E	4E	4ee	4e	4ee	4e
.	.	4bb	4gg#	4e	4E	4E	4gg#	4b	4E	4E	4ee	4e	4ee	4e
.	.	4ccc	4aa	4d#	4E	4E	4aa	4cc	4E	4E	4ee	4e	4ee	4e
=103	=103	=103	=103	=103	=103	=103	=103	=103	=103	=103	=103	=103	=103	=103
1eee_	1r	8bb	2gg#	2e	2E	2E	2gg#	2b	2E	2E	2.ee	2.e	2.ee	2.e
.	.	8ee	.	.	.	.	.	.	.	.	.	.	.	.
.	.	8gg#	.	.	.	.	.	.	.	.	.	.	.	.
.	.	8bb	.	.	.	.	.	.	.	.	.	.	.	.
.	.	4eee	4r	4r	4r	4r	4r	4r	4r	4r	.	.	.	.
.	.	4ee 4ccc	4aa	4d#	4E	4E	4aa	4cc	4E	4E	4ee	4e	4ee	4e
=104	=104	=104	=104	=104	=104	=104	=104	=104	=104	=104	=104	=104	=104	=104
1eee]	1r	4bb 4ee	4gg#	4e	4E	4E	4gg#	4b	4E	4E	4ee	4e	4ee	4e
.	.	4ccc 4ee	4aa	4d#	4E	4E	4aa	4cc	4E	4E	4ee	4e	4ee	4e
.	.	4bb 4ee	4gg#	4e	4E	4E	4gg#	4b	4E	4E	4ee	4e	4ee	4e
.	.	4ccc 4ee	4aa	4d#	4E	4E	4aa	4cc	4E	4E	4ee	4e	4ee	4e
=105	=105	=105	=105	=105	=105	=105	=105	=105	=105	=105	=105	=105	=105	=105
2eee	1r	2bb	2gg#	2e	2E	2E	2gg#	2b	2E	2E	2ee	2e	2ee	2e
2eee	.	2eee 2ee	2ee 2e 2b	2e	2E	2E	2gg#	2b	2E	2E	2ee	2e	2ee	2e
=106	=106	=106	=106	=106	=106	=106	=106	=106	=106	=106	=106	=106	=106	=106
2eee	1r	2eee 2ee	2e 2ee 2b	2e	2E	2E	2gg#	2b	2E	2E	2ee	2e	2ee	2e
2r	.	2r	2r	2r	2r	2r	2r	2r	2r	2r	2r	2r	2r	2r
=107	=107	=107	=107	=107	=107	=107	=107	=107	=107	=107	=107	=107	=107	=107
1r	1r	2.ee	1cc	1g	[1c	[1c	1r	1r	1r	1r	1r	1r	1r	1r
.	.	8ff	.	.	.	.	.	.	.	.	.	.	.	.
.	.	8ee	.	.	.	.	.	.	.	.	.	.	.	.
=108	=108	=108	=108	=108	=108	=108	=108	=108	=108	=108	=108	=108	=108	=108
1r	1r	2dd	1b	1f	1c_	1c_	1r	1r	1r	1r	1r	1r	1r	1r
.	.	2gg	.	.	.	.	.	.	.	.	.	.	.	.
=109	=109	=109	=109	=109	=109	=109	=109	=109	=109	=109	=109	=109	=109	=109
1r	1r	4cc	4b-	4e	1c_	1c_	1r	1r	1r	1r	1r	1r	1r	1r
.	.	4ee	4g	4b-	.	.	.	.	.	.	.	.	.	.
.	.	4ff	4a	4a	.	.	.	.	.	.	.	.	.	.
.	.	4aa	4f	4f	.	.	.	.	.	.	.	.	.	.
=110	=110	=110	=110	=110	=110	=110	=110	=110	=110	=110	=110	=110	=110	=110
1r	1r	2aa	2f	1c	1c]	1c]	1r	1r	1r	1r	1r	1r	1r	1r
.	.	2gg	2e	.	.	.	.	.	.	.	.	.	.	.
=111	=111	=111	=111	=111	=111	=111	=111	=111	=111	=111	=111	=111	=111	=111
1r	1r	4ff	4g	4d	4B	4B	1r	1r	1r	1r	1r	1r	1r	1r
.	.	4ff	4g	4d	4B	4B	.	.	.	.	.	.	.	.
.	.	4ff	4g	4d	4B	4B	.	.	.	.	.	.	.	.
.	.	4r	4r	4r	4r	4r	.	.	.	.	.	.	.	.
=112	=112	=112	=112	=112	=112	=112	=112	=112	=112	=112	=112	=112	=112	=112
1r	1r	4ee	4g	4c	4c	4c	1r	1r	1r	1r	1r	1r	1r	1r
.	.	4ee	4g	4c	4c	4c	.	.	.	.	.	.	.	.
.	.	4ee	4g	4c	4c	4c	.	.	.	.	.	.	.	.
.	.	4r	4r	4r	4r	4r	.	.	.	.	.	.	.	.
=113	=113	=113	=113	=113	=113	=113	=113	=113	=113	=113	=113	=113	=113	=113
1r	1r	4dd	4a	4f	4F	4F	1r	1r	1r	1r	1r	1r	1r	1r
.	.	4dd	4r	4r	4r	4r	.	.	.	.	.	.	.	.
.	.	8cc	4f	4d	4G	4G	.	.	.	.	.	.	.	.
.	.	8b	.	.	.	.	.	.	.	.	.	.	.	.
.	.	8a	4r	4r	4r	4r	.	.	.	.	.	.	.	.
.	.	8g	.	.	.	.	.	.	.	.	.	.	.	.
=114	=114	=114	=114	=114	=114	=114	=114	=114	=114	=114	=114	=114	=114	=114
1r	1r	4cc	4e	4e	4C	4C	1r	1r	1r	1r	1r	1r	1r	1r
.	.	2.r	2.r	2.r	2.r	2.r	.	.	.	.	.	.	.	.
=115	=115	=115	=115	=115	=115	=115	=115	=115	=115	=115	=115	=115	=115	=115
1r	1r	1d	1B	4G	4G	4G	1r	1r	1r	1r	1r	1r	1r	1r
.	.	.	.	2.r	4G	4G	.	.	.	.	.	.	.	.
.	.	.	.	.	4G	4G	.	.	.	.	.	.	.	.
.	.	.	.	.	4r	4r	.	.	.	.	.	.	.	.
=116	=116	=116	=116	=116	=116	=116	=116	=116	=116	=116	=116	=116	=116	=116
1r	1r	2.e	1c	4G	4G	4G	1r	1r	1r	1r	1r	1r	1r	1r
.	.	.	.	2.r	4G	4G	.	.	.	.	.	.	.	.
.	.	.	.	.	4G	4G	.	.	.	.	.	.	.	.
.	.	4g	.	.	4r	4r	.	.	.	.	.	.	.	.
=117	=117	=117	=117	=117	=117	=117	=117	=117	=117	=117	=117	=117	=117	=117
1r	1r	4f#	2A	2.c	4G	4G	1r	1r	1r	1r	1r	1r	1r	1r
.	.	4cc	.	.	4G	4G	.	.	.	.	.	.	.	.
.	.	4a	2c	.	4G	4G	.	.	.	.	.	.	.	.
.	.	4f#	.	4a	4r	4r	.	.	.	.	.	.	.	.
=118	=118	=118	=118	=118	=118	=118	=118	=118	=118	=118	=118	=118	=118	=118
1r	1r	2a	2c	2f#	4G	4G	1r	1r	1r	1r	1r	1r	1r	1r
.	.	.	.	.	4G	4G	.	.	.	.	.	.	.	.
.	.	2g	2B	2g	4G	4G	.	.	.	.	.	.	.	.
.	.	.	.	.	4r	4r	.	.	.	.	.	.	.	.
=119	=119	=119	=119	=119	=119	=119	=119	=119	=119	=119	=119	=119	=119	=119
1r	1r	1g#	1B	1d	1E	1E	1r	1r	1r	1r	1r	1r	1r	1r
=120	=120	=120	=120	=120	=120	=120	=120	=120	=120	=120	=120	=120	=120	=120
1r	1r	4a	2A	2.c	1F	1F	1r	1r	1r	1r	1r	1r	1r	1r
.	.	4aa	.	.	.	.	.	.	.	.	.	.	.	.
.	.	4ff	4a	.	.	.	.	.	.	.	.	.	.	.
.	.	4dd	4f	4d	.	.	.	.	.	.	.	.	.	.
=121	=121	=121	=121	=121	=121	=121	=121	=121	=121	=121	=121	=121	=121	=121
1r	1r	2cc	2e	2e	1G	1G	1r	1r	1r	1r	1r	1r	1r	1r
.	.	4.dd	4.f	4.B	.	.	.	.	.	.	.	.	.	.
.	.	8cc	8e	8c	.	.	.	.	.	.	.	.	.	.
=122	=122	=122	=122	=122	=122	=122	=122	=122	=122	=122	=122	=122	=122	=122
1r	1r	4cc	4e	4c	2C	2C	1r	1r	4e	4c	1cc	1e	1r	1r
.	.	2.r	2.r	2.r	.	.	.	.	4G	4G	.	.	.	.
.	.	.	.	.	2r	2r	.	.	4e	4c	.	.	.	.
.	.	.	.	.	.	.	.	.	4G	4G	.	.	.	.
=123	=123	=123	=123	=123	=123	=123	=123	=123	=123	=123	=123	=123	=123	=123
4bb	1r	4b	4f	4d	4G	4G	1r	1r	4f	4d	1dd	1g	1r	1r
4bb	.	4b	2.r	2.r	2.r	2.r	.	.	4G	4G	.	.	.	.
4bb	.	4b	.	.	.	.	.	.	4f	4d	.	.	.	.
4r	.	4r	.	.	.	.	.	.	4G	4G	.	.	.	.
=124	=124	=124	=124	=124	=124	=124	=124	=124	=124	=124	=124	=124	=124	=124
8bb	1r	8b	4e	4c	4G	4G	1r	1r	4e	4c	1ee	1cc	1r	1r
8ccc	.	8cc	.	.	.	.	.	.	.	.	.	.	.	.
8eee	.	8ee	2.r	2.r	2.r	2.r	.	.	4G	4G	.	.	.	.
8ccc	.	8cc	.	.	.	.	.	.	.	.	.	.	.	.
4gg	.	4g	.	.	.	.	.	.	4e	4c	.	.	.	.
4r	.	4r	.	.	.	.	.	.	4G	4G	.	.	.	.
=125	=125	=125	=125	=125	=125	=125	=125	=125	=125	=125	=125	=125	=125	=125
4ff	1r	4ff	4b 4f	4d	4G	4G	1r	1r	4d	4B	1dd	1g	1r	1r
4ff	.	4ff	2.r	2.r	2.r	2.r	.	.	4G	4G	.	.	.	.
4ff	.	4ff	.	.	.	.	.	.	4d	4B	.	.	.	.
4r	.	4r	.	.	.	.	.	.	4G	4G	.	.	.	.
=126	=126	=126	=126	=126	=126	=126	=126	=126	=126	=126	=126	=126	=126	=126
8dd#	1r	8dd#	4e 4cc	4c	4G	4G	1r	1r	4e	4c	1cc	1e	1r	1r
8ee	.	8ee	.	.	.	.	.	.	.	.	.	.	.	.
8gg	.	8gg	2.r	2.r	2.r	2.r	.	.	4G	4G	.	.	.	.
8ee	.	8ee	.	.	.	.	.	.	.	.	.	.	.	.
4cc	.	4cc	.	.	.	.	.	.	4e	4c	.	.	.	.
4r	.	4r	.	.	.	.	.	.	4G	4G	.	.	.	.
=127	=127	=127	=127	=127	=127	=127	=127	=127	=127	=127	=127	=127	=127	=127
4bb	1r	4b	4f	4d	4G	4G	1r	1r	4f	4d	1dd	1g	1r	1r
4bb	.	4b	2.r	2.r	2.r	2.r	.	.	4G	4G	.	.	.	.
4bb	.	4b	.	.	.	.	.	.	4f	4d	.	.	.	.
4r	.	4r	.	.	.	.	.	.	4G	4G	.	.	.	.
=128	=128	=128	=128	=128	=128	=128	=128	=128	=128	=128	=128	=128	=128	=128
8bb	1r	8b	4e	4c	4C	4C	1r	1r	4e	4c	2ee	2cc	1r	1r
8ccc	.	8cc	.	.	.	.	.	.	.	.	.	.	.	.
8eee	.	8ee	2r	2r	2r	2r	.	.	4G	4G	.	.	.	.
8ccc	.	8cc	.	.	.	.	.	.	.	.	.	.	.	.
4gg	.	4g	.	.	.	.	.	.	4e	4c	4r	4r	.	.
4bb	.	4b	4f	4d	4G	4G	.	.	4f	4G	4dd	4g	.	.
=129	=129	=129	=129	=129	=129	=129	=129	=129	=129	=129	=129	=129	=129	=129
8bb	1r	8b	4e	4c	4C	4C	1r	1r	4e	4c	4ee	4cc	1r	1r
8ccc	.	8cc	.	.	.	.	.	.	.	.	.	.	.	.
8eee	.	8ee	2r	2r	2r	2r	.	.	4G	4G	2r	2r	.	.
8ccc	.	8cc	.	.	.	.	.	.	.	.	.	.	.	.
4gg	.	4g	.	.	.	.	.	.	4e	4c	.	.	.	.
4bb	.	4b	4f	4d	4G	4G	.	.	4f	4d	4dd	4g	.	.
=130	=130	=130	=130	=130	=130	=130	=130	=130	=130	=130	=130	=130	=130	=130
8bb	1r	8b	4e	4c	4C	4C	2.r	2.r	4e	4c	4ee	4cc	1r	1r
8ccc	.	8cc	.	.	.	.	.	.	.	.	.	.	.	.
8eee	.	8ee	2r	2.r	2.r	2.r	.	.	2.r	2.r	2.r	2.r	.	.
8ccc	.	8cc	.	.	.	.	.	.	.	.	.	.	.	.
4gg	.	4g	.	.	.	.	.	.	.	.	.	.	.	.
4r	.	4e	4c	.	.	.	4ee	4cc	.	.	.	.	.	.
=131	=131	=131	=131	=131	=131	=131	=131	=131	=131	=131	=131	=131	=131	=131
1r	1r	4e	4c	1r	1r	1r	4ee	4cc	1r	1r	1r	1r	1r	1r
.	.	4d	4B	.	.	.	4dd	4b	.	.	.	.	.	.
.	.	4e	4c	.	.	.	4ee	4cc	.	.	.	.	.	.
.	.	4f	4d	.	.	.	4ff	4dd	.	.	.	.	.	.
=132	=132	=132	=132	=132	=132	=132	=132	=132	=132	=132	=132	=132	=132	=132
1r	1r	1g	1e	4c	4C	4C	1gg	1ee	4C	4C	1r	1r	1r	1r
.	.	.	.	4c	2.r	2.r	.	.	4c	4c	.	.	.	.
.	.	.	.	4c	.	.	.	.	4c	4c	.	.	.	.
.	.	.	.	4c	.	.	.	.	4c	4c	.	.	.	.
=133	=133	=133	=133	=133	=133	=133	=133	=133	=133	=133	=133	=133	=133	=133
1r	1r	2f#	2d#	4c	1r	1r	2ff#	2dd#	4C	4C	1r	1r	1r	1r
.	.	.	.	4c	.	.	.	.	4c	4c	.	.	.	.
.	.	2g	2e	4c	.	.	2gg	2ee	4c	4c	.	.	.	.
.	.	.	.	4c	.	.	.	.	4c	4c	.	.	.	.
=134	=134	=134	=134	=134	=134	=134	=134	=134	=134	=134	=134	=134	=134	=134
1r	1r	8g#	4f	2c	4F	4F	8gg#	4ff	2F	1r	1r	1r	1r	1r
.	.	8a	.	.	.	.	8aa	.	.	.	.	.	.	.
.	.	8cc	2r	.	2r	2r	8ccc	2r	.	.	.	.	.	.
.	.	8a	.	.	.	.	8aa	.	.	.	.	.	.	.
.	.	4f	.	4r	.	.	4ff	.	4r	.	.	.	.	.
.	.	4g	4e	4c	4C	4C	4gg	4ee	4C	.	.	.	.	.
=135	=135	=135	=135	=135	=135	=135	=135	=135	=135	=135	=135	=135	=135	=135
1r	1r	8g#	4f	4c	4F	4F	8gg#	4ff	4F	1r	1r	1r	1r	1r
.	.	8a	.	.	.	.	8aa	.	.	.	.	.	.	.
.	.	8cc	2r	2r	2r	2r	8ccc	2r	2r	.	.	.	.	.
.	.	8a	.	.	.	.	8aa	.	.	.	.	.	.	.
.	.	4f	.	.	.	.	4ff	.	.	.	.	.	.	.
.	.	4g	4e	4c	4C	4C	4gg	4ee	4C	.	.	.	.	.
=136	=136	=136	=136	=136	=136	=136	=136	=136	=136	=136	=136	=136	=136	=136
1r	1r	8g#	4f	4c	4F	4F	8gg#	4ff	4F	1r	1r	1r	1r	1r
.	.	8a	.	.	.	.	8aa	.	.	.	.	.	.	.
.	.	8cc	2r	2r	2r	2r	8ccc	2r	2r	.	.	.	.	.
.	.	8a	.	.	.	.	8aa	.	.	.	.	.	.	.
.	.	4f	.	.	.	.	4ff	.	.	.	.	.	.	.
.	.	4aa	4ff	4F	4F	4F	4aa	4ff	4F	.	.	.	.	.
=137	=137	=137	=137	=137	=137	=137	=137	=137	=137	=137	=137	=137	=137	=137
1r	1r	4gg	4ee	2G	2G	2G	4gg	4ee	2G	1r	1r	1r	1r	1r
.	.	4ff	4dd	.	.	.	4ff	4dd	.	.	.	.	.	.
.	.	4ee	4cc	2G	2GG	2GG	4ee	4cc	2GG	.	.	.	.	.
.	.	4dd	4b	.	.	.	4dd	4b	.	.	.	.	.	.
=138	=138	=138	=138	=138	=138	=138	=138	=138	=138	=138	=138	=138	=138	=138
1r	2C	8cc	2cc	2.cc	2.c	2.c	2cc	2cc	2.c	2.c	2cc	2e	1ee	1cc
.	.	8e	.	.	.	.	.	.	.	.	.	.	.	.
.	.	8g	.	.	.	.	.	.	.	.	.	.	.	.
.	.	8cc	.	.	.	.	.	.	.	.	.	.	.	.
.	2r	8ee	[2aa	.	.	.	[2aa	8ee	.	.	2r	2r	.	.
.	.	8gg	.	.	.	.	.	8gg	.	.	.	.	.	.
.	.	8ff	.	8dd	8d	8d	.	8ff	8d	8d	.	.	.	.
.	.	8ee	.	8cc	8c	8c	.	8ee	8c	8c	.	.	.	.
=139	=139	=139	=139	=139	=139	=139	=139	=139	=139	=139	=139	=139	=139	=139
2r	2GG	8dd	4aa]	2b	2B	2B	4aa]	2dd	2B	2B	2g	2g	2dd	2g
.	.	8ff#	.	.	.	.	.	.	.	.	.	.	.	.
.	.	8gg	8bb	.	.	.	8bb	.	.	.	.	.	.	.
.	.	8ff#	8aa	.	.	.	8aa	.	.	.	.	.	.	.
2gg	2r	8gg	2gg	2ee	2e	2e	[2gg	2gg	2e	2e	2r	2r	2r	2r
.	.	8ff	.	.	.	.	.	.	.	.	.	.	.	.
.	.	8ee	.	.	.	.	.	.	.	.	.	.	.	.
.	.	8dd	.	.	.	.	.	.	.	.	.	.	.	.
=140	=140	=140	=140	=140	=140	=140	=140	=140	=140	=140	=140	=140	=140	=140
2ccc	1r	8cc	2ccc	2.a	2.A	2.A	2gg]	2r	2.A	2.A	1r	1r	1r	1r
.	.	8c	.	.	.	.	.	.	.	.	.	.	.	.
.	.	8e	.	.	.	.	.	.	.	.	.	.	.	.
.	.	8a	.	.	.	.	.	.	.	.	.	.	.	.
2ff	.	8cc	[2ff	.	.	.	[2ff	8cc	.	.	.	.	.	.
.	.	8ee	.	.	.	.	.	8ee	.	.	.	.	.	.
.	.	8dd	.	8b	8B	8B	.	8dd	8B	8B	.	.	.	.
.	.	8cc	.	8a	8A	8A	.	8cc	8A	8A	.	.	.	.
=141	=141	=141	=141	=141	=141	=141	=141	=141	=141	=141	=141	=141	=141	=141
2r	1r	8b	4ff]	2g	2G	2G	4ff]	2b	2G	2G	1r	1r	1r	1r
.	.	8dd#	.	.	.	.	.	.	.	.	.	.	.	.
.	.	8ee	8gg	.	.	.	8gg	.	.	.	.	.	.	.
.	.	8dd#	8ff	.	.	.	8ff	.	.	.	.	.	.	.
2ee	.	8ee	2ee	2cc	2c	2c	[2ee	2ee	2c	2c	.	.	.	.
.	.	8dd	.	.	.	.	.	.	.	.	.	.	.	.
.	.	8cc	.	.	.	.	.	.	.	.	.	.	.	.
.	.	8b	.	.	.	.	.	.	.	.	.	.	.	.
=142	=142	=142	=142	=142	=142	=142	=142	=142	=142	=142	=142	=142	=142	=142
2aa	1r	8a	2aa	2.f	2.F	2.F	2ee]	2r	2.F	2.F	1r	1r	1r	1r
.	.	8A	.	.	.	.	.	.	.	.	.	.	.	.
.	.	8c	.	.	.	.	.	.	.	.	.	.	.	.
.	.	8f	.	.	.	.	.	.	.	.	.	.	.	.
2dd	.	8a	[2dd	.	.	.	[2dd	8a	.	.	.	.	.	.
.	.	8cc	.	.	.	.	.	8cc	.	.	.	.	.	.
.	.	8b	.	8g	8G	8G	.	8b	8G	8G	.	.	.	.
.	.	8a	.	8f	8F	8F	.	8a	8F	8F	.	.	.	.
=143	=143	=143	=143	=143	=143	=143	=143	=143	=143	=143	=143	=143	=143	=143
2r	1r	8g	4dd]	2e	2E	2E	4dd]	2g	2E	2E	1r	1r	1r	1r
.	.	8b	.	.	.	.	.	.	.	.	.	.	.	.
.	.	8cc	8ee	.	.	.	8ee	.	.	.	.	.	.	.
.	.	8b	8dd	.	.	.	8dd	.	.	.	.	.	.	.
2cc	.	8cc	[2cc	2a	2A	2A	2cc	[2cc	2A	2A	.	.	.	.
.	.	8dd	.	.	.	.	.	.	.	.	.	.	.	.
.	.	8ee	.	.	.	.	.	.	.	.	.	.	.	.
.	.	8cc	.	.	.	.	.	.	.	.	.	.	.	.
=144	=144	=144	=144	=144	=144	=144	=144	=144	=144	=144	=144	=144	=144	=144
2ff	1r	8ff	2cc]	2d	2D	2D	1ff	2cc]	2D	2D	1r	1r	1r	1r
.	.	8ee	.	.	.	.	.	.	.	.	.	.	.	.
.	.	8dd	.	.	.	.	.	.	.	.	.	.	.	.
.	.	8cc	.	.	.	.	.	.	.	.	.	.	.	.
2dd	.	8b	2b	2g	2G	2G	.	2b	2G	2G	.	.	.	.
.	.	8a	.	.	.	.	.	.	.	.	.	.	.	.
.	.	8g	.	.	.	.	.	.	.	.	.	.	.	.
.	.	8f	.	.	.	.	.	.	.	.	.	.	.	.
=145	=145	=145	=145	=145	=145	=145	=145	=145	=145	=145	=145	=145	=145	=145
2gg	1r	8e	2e 2gg 2cc	2c	2C	2C	2ee	2cc	2C	2C	1r	1r	1r	1r
.	.	8g	.	.	.	.	.	.	.	.	.	.	.	.
.	.	8cc	.	.	.	.	.	.	.	.	.	.	.	.
.	.	8ee	.	.	.	.	.	.	.	.	.	.	.	.
2aa	.	8a	2aa 2f 2cc	2f	2F	2F	2aa	2cc	2F	2F	.	.	.	.
.	.	8cc	.	.	.	.	.	.	.	.	.	.	.	.
.	.	8ff	.	.	.	.	.	.	.	.	.	.	.	.
.	.	8aa	.	.	.	.	.	.	.	.	.	.	.	.
=146	=146	=146	=146	=146	=146	=146	=146	=146	=146	=146	=146	=146	=146	=146
2gg	1r	4gg	2e 2gg 2cc	2g	2G	2G	2gg	2ee	2G	2G	1r	1r	1r	1r
.	.	4ee	.	.	.	.	.	.	.	.	.	.	.	.
2bb	.	4dd	2dd 2ff	2G	2GG	2GG	2bb	2dd	2GG	2GG	.	.	.	.
.	.	4bb	.	.	.	.	.	.	.	.	.	.	.	.
=147	=147	=147	=147	=147	=147	=147	=147	=147	=147	=147	=147	=147	=147	=147
4ccc	2C	8ccc	2ee 2cc	2c	2C	2C	4ccc	4ee	2C	2C	2ee	2cc	2cc	2e
.	.	8gg	.	.	.	.	.	.	.	.	.	.	.	.
2.r	.	8ff	.	.	.	.	2.r	2.r	.	.	.	.	.	.
.	.	8gg	.	.	.	.	.	.	.	.	.	.	.	.
.	2r	8ee	2r	2r	2r	2r	.	.	2r	2r	2r	2r	2r	2r
.	.	8ff	.	.	.	.	.	.	.	.	.	.	.	.
.	.	8dd	.	.	.	.	.	.	.	.	.	.	.	.
.	.	8ee	.	.	.	.	.	.	.	.	.	.	.	.
=148	=148	=148	=148	=148	=148	=148	=148	=148	=148	=148	=148	=148	=148	=148
4ccc	2C	8cc	2ee 2g 2cc	2c	2C	2C	4gg	4ee	2C	2C	2cc	2e	2cc	2e
.	.	8ee	.	.	.	.	.	.	.	.	.	.	.	.
2.r	.	8dd	.	.	.	.	2.r	2.r	.	.	.	.	.	.
.	.	8ee	.	.	.	.	.	.	.	.	.	.	.	.
.	2r	8g	2r	2r	2r	2r	.	.	2r	2r	2r	2r	2r	2r
.	.	8a	.	.	.	.	.	.	.	.	.	.	.	.
.	.	8f	.	.	.	.	.	.	.	.	.	.	.	.
.	.	8g	.	.	.	.	.	.	.	.	.	.	.	.
=149	=149	=149	=149	=149	=149	=149	=149	=149	=149	=149	=149	=149	=149	=149
4gg	2C	8e	2ee 2g 2cc	2c	2C	2C	4ee	4cc	2C	2C	2cc	2e	2cc	2e
.	.	8g	.	.	.	.	.	.	.	.	.	.	.	.
2.r	.	8f	.	.	.	.	2.r	2.r	.	.	.	.	.	.
.	.	8g	.	.	.	.	.	.	.	.	.	.	.	.
.	2r	8e	2r	2r	2r	2r	.	.	2r	2r	2r	2r	2r	2r
.	.	8f	.	.	.	.	.	.	.	.	.	.	.	.
.	.	8d	.	.	.	.	.	.	.	.	.	.	.	.
.	.	8e	.	.	.	.	.	.	.	.	.	.	.	.
=150	=150	=150	=150	=150	=150	=150	=150	=150	=150	=150	=150	=150	=150	=150
4ee	2C	8c	2c	2c	2C	2C	4cc	4g	2C	2C	2cc	2c	2cc	2e
.	.	8G	.	.	.	.	.	.	.	.	.	.	.	.
2.r	.	8A	.	.	.	.	2.r	2.r	.	.	.	.	.	.
.	.	8B	.	.	.	.	.	.	.	.	.	.	.	.
.	2r	8c	2r	2r	2r	2r	.	.	2r	2r	2r	2r	2r	2r
.	.	8G	.	.	.	.	.	.	.	.	.	.	.	.
.	.	8A	.	.	.	.	.	.	.	.	.	.	.	.
.	.	8B	.	.	.	.	.	.	.	.	.	.	.	.
=151	=151	=151	=151	=151	=151	=151	=151	=151	=151	=151	=151	=151	=151	=151
4cc	2C	8c	8c	8c	8C	8C	4cc	4e	8C	8C	2cc	2c	2cc	2c
.	.	8G	8G	8G	8GG	8GG	.	.	8GG	8GG	.	.	.	.
2.r	.	8A	8A	8A	8AA	8AA	2.r	2.r	8AA	8AA	.	.	.	.
.	.	8B	8B	8B	8BB	8BB	.	.	8BB	8BB	.	.	.	.
.	2r	8c	8c	8c	8C	8C	.	.	8C	8C	2r	2r	2r	2r
.	.	8G	8G	8G	8GG	8GG	.	.	8GG	8GG	.	.	.	.
.	.	8A	8A	8A	8AA	8AA	.	.	8AA	8AA	.	.	.	.
.	.	8B	8B	8B	8BB	8BB	.	.	8BB	8BB	.	.	.	.
=152	=152	=152	=152	=152	=152	=152	=152	=152	=152	=152	=152	=152	=152	=152
4cc	2C	8c	8c	8c	8C	8C	4cc	4e	8C	8C	2cc	2c	2cc	2c
.	.	8G	8G	8G	8GG	8GG	.	.	8GG	8GG	.	.	.	.
2.r	.	8A	8A	8A	8AA	8AA	2.r	2.r	8AA	8AA	.	.	.	.
.	.	8B	8B	8B	8BB	8BB	.	.	8BB	8BB	.	.	.	.
.	2r	8c	8c	8c	8C	8C	.	.	8C	8C	2r	2r	2r	2r
.	.	8G	8G	8G	8GG	8GG	.	.	8GG	8GG	.	.	.	.
.	.	8A	8A	8A	8AA	8AA	.	.	8AA	8AA	.	.	.	.
.	.	8B	8B	8B	8BB	8BB	.	.	8BB	8BB	.	.	.	.
=153	=153	=153	=153	=153	=153	=153	=153	=153	=153	=153	=153	=153	=153	=153
[1eee-	4C	8c	8c	8c	8C	8C	[1gg	[1ee-	[1e-	[1c	[1cc	[1c	[1cc	[1c
.	.	8c	8G 8e-	8e- 8G	8C	8C	.	.	.	.	.	.	.	.
.	8C	8c	8e- 8G	8G 8e-	8C	8C	.	.	.	.	.	.	.	.
.	8C	8c	8G 8e-	8e- 8G	8C	8C	.	.	.	.	.	.	.	.
.	4C	8e-	8e- 8G	8e- 8G	8C	8C	.	.	.	.	.	.	.	.
.	.	8e-	8e- 8G	8G 8e-	8C	8C	.	.	.	.	.	.	.	.
.	4C	8e-	8G 8e-	8e- 8G	8C	8C	.	.	.	.	.	.	.	.
.	.	8e-	8G 8e-	8G 8e-	8C	8C	.	.	.	.	.	.	.	.
=154	=154	=154	=154	=154	=154	=154	=154	=154	=154	=154	=154	=154	=154	=154
1eee-]	4C	8g	8e- 8G	8G 8e-	8C	8C	1gg]	1ee-]	1e-]	1c]	1cc]	1c]	1cc]	1c]
.	.	8g	8G 8e-	8G 8e-	8C	8C	.	.	.	.	.	.	.	.
.	8C	8g	8e- 8G	8G 8e-	8C	8C	.	.	.	.	.	.	.	.
.	8C	8g	8e- 8G	8e- 8G	8C	8C	.	.	.	.	.	.	.	.
.	4C	8cc	8G 8e-	8e- 8G	8C	8C	.	.	.	.	.	.	.	.
.	.	8cc	8e- 8G	8e- 8G	8C	8C	.	.	.	.	.	.	.	.
.	4C	8cc	8e- 8G	8G 8e-	8C	8C	.	.	.	.	.	.	.	.
.	.	8cc	8G 8e-	8e- 8G	8C	8C	.	.	.	.	.	.	.	.
=155	=155	=155	=155	=155	=155	=155	=155	=155	=155	=155	=155	=155	=155	=155
[1fff	2C	8d	8d	8B	8C	8C	[1aa-	[1b	[1f	[1B	2dd	2G	2dd	2g
.	.	8e-	8e-	8B	8C	8C	.	.	.	.	.	.	.	.
.	.	8f	8f	8B	8C	8C	.	.	.	.	.	.	.	.
.	.	8e-	8e-	8B	8C	8C	.	.	.	.	.	.	.	.
.	2r	8d	8d	8B	8C	8C	.	.	.	.	2r	2r	2r	2r
.	.	8c	8c	8B	8C	8C	.	.	.	.	.	.	.	.
.	.	8B	8B	8B	8C	8C	.	.	.	.	.	.	.	.
.	.	8c	8c	8B	8C	8C	.	.	.	.	.	.	.	.
=156	=156	=156	=156	=156	=156	=156	=156	=156	=156	=156	=156	=156	=156	=156
1fff_	2C	8d	8d	8B	8C	8C	1aa-_	1b_	1f_	1B_	2dd	2G	2dd	2g
.	.	8e-	8e-	8B	8C	8C	.	.	.	.	.	.	.	.
.	.	8f	8f	8B	8C	8C	.	.	.	.	.	.	.	.
.	.	8e-	8e-	8B	8C	8C	.	.	.	.	.	.	.	.
.	2r	8d	8d	8B	8C	8C	.	.	.	.	2r	2r	2r	2r
.	.	8c	8c	8B	8C	8C	.	.	.	.	.	.	.	.
.	.	8B	8B	8B	8C	8C	.	.	.	.	.	.	.	.
.	.	8c	8c	8B	8C	8C	.	.	.	.	.	.	.	.
=157	=157	=157	=157	=157	=157	=157	=157	=157	=157	=157	=157	=157	=157	=157
1fff_	4C	8d	8d 8B	8f	8C	8C	1aa-_	1b_	1f_	1B_	[1dd	[1G	[1dd	[1g
.	.	8d	8d 8B	8f	8C	8C	.	.	.	.	.	.	.	.
.	8C	8d	8d 8B	8f	8C	8C	.	.	.	.	.	.	.	.
.	8C	8d	8d 8B	8f	8C	8C	.	.	.	.	.	.	.	.
.	4C	8f	8B 8d	8f	8C	8C	.	.	.	.	.	.	.	.
.	.	8f	8d 8B	8f	8C	8C	.	.	.	.	.	.	.	.
.	4C	8f	8B 8d	8f	8C	8C	.	.	.	.	.	.	.	.
.	.	8f	8B 8d	8f	8C	8C	.	.	.	.	.	.	.	.
=158	=158	=158	=158	=158	=158	=158	=158	=158	=158	=158	=158	=158	=158	=158
1fff]	4C	8b	8d 8B	8f	8C	8C	1aa-]	1b]	1f]	1B]	1dd]	1G]	1dd]	1g]
.	.	8b	8d 8B	8f	8C	8C	.	.	.	.	.	.	.	.
.	8C	8b	8d 8B	8f	8C	8C	.	.	.	.	.	.	.	.
.	8C	8b	8d 8B	8f	8C	8C	.	.	.	.	.	.	.	.
.	4C	8dd	8d 8B	8f	8C	8C	.	.	.	.	.	.	.	.
.	.	8dd	8B 8d	8f	8C	8C	.	.	.	.	.	.	.	.
.	4C	8dd	8d 8B	8f	8C	8C	.	.	.	.	.	.	.	.
.	.	8dd	8d 8B	8f	8C	8C	.	.	.	.	.	.	.	.
=159	=159	=159	=159	=159	=159	=159	=159	=159	=159	=159	=159	=159	=159	=159
[1eee-	4C	8e-	8e- 8G	8e- 8G	8C	8C	[1gg	[1ee-	[1e-	[1c	[1cc	[1c	[1cc	[1c
.	.	8e-	8e- 8G	8e- 8G	8C	8C	.	.	.	.	.	.	.	.
.	8C	8e-	8G 8e-	8e- 8G	8C	8C	.	.	.	.	.	.	.	.
.	8C	8e-	8G 8e-	8G 8e-	8C	8C	.	.	.	.	.	.	.	.
.	4C	8g	8e- 8G	8G 8e-	8C	8C	.	.	.	.	.	.	.	.
.	.	8g	8G 8e-	8e- 8G	8C	8C	.	.	.	.	.	.	.	.
.	4C	8g	8G 8e-	8G 8e-	8C	8C	.	.	.	.	.	.	.	.
.	.	8g	8G 8e-	8G 8e-	8C	8C	.	.	.	.	.	.	.	.
=160	=160	=160	=160	=160	=160	=160	=160	=160	=160	=160	=160	=160	=160	=160
1eee-_	4C	8cc	8G 8e-	8G 8e-	8C	8C	1gg]	1ee-]	1e-]	1c]	1cc]	1c]	1cc]	1c]
.	.	8cc	8e- 8G	8G 8e-	8C	8C	.	.	.	.	.	.	.	.
.	8C	8cc	8G 8e-	8G 8e-	8C	8C	.	.	.	.	.	.	.	.
.	8C	8cc	8G 8e-	8G 8e-	8C	8C	.	.	.	.	.	.	.	.
.	4C	8ee-	8G 8e-	8G 8e-	8C	8C	.	.	.	.	.	.	.	.
.	.	8ee-	8G 8e-	8G 8e-	8C	8C	.	.	.	.	.	.	.	.
.	4C	8ee-	8e- 8G	8G 8e-	8C	8C	.	.	.	.	.	.	.	.
.	.	8ee-	8G 8e-	8G 8e-	8C	8C	.	.	.	.	.	.	.	.
=161	=161	=161	=161	=161	=161	=161	=161	=161	=161	=161	=161	=161	=161	=161
1eee-_	4C	8a-	8e- 8A-	8A- 8e-	8C	8C	[1aa-	[1ee-	[1e-	[1A-	[1cc	[1c	[1cc	[1c
.	.	8a-	8A- 8e-	8A- 8e-	8C	8C	.	.	.	.	.	.	.	.
.	8C	8a-	8e- 8A-	8A- 8e-	8C	8C	.	.	.	.	.	.	.	.
.	8C	8a-	8e- 8A-	8A- 8e-	8C	8C	.	.	.	.	.	.	.	.
.	4C	8cc	8A- 8e-	8A- 8e-	8C	8C	.	.	.	.	.	.	.	.
.	.	8cc	8A- 8e-	8A- 8e-	8C	8C	.	.	.	.	.	.	.	.
.	4C	8cc	8A- 8e-	8A- 8e-	8C	8C	.	.	.	.	.	.	.	.
.	.	8cc	8A- 8e-	8e- 8A-	8C	8C	.	.	.	.	.	.	.	.
=162	=162	=162	=162	=162	=162	=162	=162	=162	=162	=162	=162	=162	=162	=162
1eee-]	4C	8ee-	8A- 8e-	8e- 8A-	8C	8C	1aa-]	1ee-]	1e-]	1A-]	1cc]	1c]	1cc]	1c]
.	.	8ee-	8A- 8e-	8e- 8A-	8C	8C	.	.	.	.	.	.	.	.
.	8C	8ee-	8A- 8e-	8e- 8A-	8C	8C	.	.	.	.	.	.	.	.
.	8C	8ee-	8e- 8A-	8e- 8A-	8C	8C	.	.	.	.	.	.	.	.
.	4C	8aa-	8A- 8e-	8e- 8A-	8C	8C	.	.	.	.	.	.	.	.
.	.	8aa-	8A- 8e-	8e- 8A-	8C	8C	.	.	.	.	.	.	.	.
.	4C	8aa-	8A- 8e-	8A- 8e-	8C	8C	.	.	.	.	.	.	.	.
.	.	8aa-	8A- 8e-	8A- 8e-	8C	8C	.	.	.	.	.	.	.	.
=163	=163	=163	=163	=163	=163	=163	=163	=163	=163	=163	=163	=163	=163	=163
[1bb	4GG	8b	8f 8G	8B	8D	8D	[1aa-	[1ff	[1d	[1B	[1dd	[1g	[1dd	[1g
.	.	8b	8f 8G	8B	8D	8D	.	.	.	.	.	.	.	.
.	8GG	8b	8f 8G	8B	8D	8D	.	.	.	.	.	.	.	.
.	8GG	8b	8f 8G	8B	8D	8D	.	.	.	.	.	.	.	.
.	4GG	8dd	8f 8G	8B	8D	8D	.	.	.	.	.	.	.	.
.	.	8dd	8f 8G	8B	8D	8D	.	.	.	.	.	.	.	.
.	4GG	8dd	8f 8G	8B	8D	8D	.	.	.	.	.	.	.	.
.	.	8dd	8f 8G	8B	8D	8D	.	.	.	.	.	.	.	.
=164	=164	=164	=164	=164	=164	=164	=164	=164	=164	=164	=164	=164	=164	=164
1bb]	4GG	8ff	8f 8G	8B	8D	8D	1aa-]	1ff]	1d]	1B]	1dd]	1g]	1dd]	1g]
.	.	8ff	8f 8G	8B	8D	8D	.	.	.	.	.	.	.	.
.	8GG	8ff	8f 8G	8B	8D	8D	.	.	.	.	.	.	.	.
.	8GG	8ff	8f 8G	8B	8D	8D	.	.	.	.	.	.	.	.
.	4GG	8bb	8f 8G	8B	8D	8D	.	.	.	.	.	.	.	.
.	.	8bb	8f 8G	8B	8D	8D	.	.	.	.	.	.	.	.
.	4GG	8bb	8f 8G	8B	8D	8D	.	.	.	.	.	.	.	.
.	.	8bb	8f 8G	8B	8D	8D	.	.	.	.	.	.	.	.
=165	=165	=165	=165	=165	=165	=165	=165	=165	=165	=165	=165	=165	=165	=165
1ccc	2C	8cc	8G 8g	8c	8E-	8E-	1gg	1cc	1c	1c	1cc	1cc	1cc	1cc
.	.	8cc	8G 8g	8c	8E-	8E-	.	.	.	.	.	.	.	.
.	.	8cc	8g 8G	8c	8E-	8E-	.	.	.	.	.	.	.	.
.	.	8cc	8G 8g	8c	8E-	8E-	.	.	.	.	.	.	.	.
.	2r	8ccc	8G 8g	8c	8E-	8E-	.	.	.	.	.	.	.	.
.	.	8ccc	8G 8g	8c	8E-	8E-	.	.	.	.	.	.	.	.
.	.	8ccc	8g 8G	8c	8E-	8E-	.	.	.	.	.	.	.	.
.	.	8ccc	8G 8g	8c	8E-	8E-	.	.	.	.	.	.	.	.
=166	=166	=166	=166	=166	=166	=166	=166	=166	=166	=166	=166	=166	=166	=166
1ccc#	1r	8cc#	8b- 8g	8e	8E	8E	1gg	1bb-	1c#	1c#	1gg	1g	1gg	1g
.	.	8cc#	8b- 8g	8e	8E	8E	.	.	.	.	.	.	.	.
.	.	8cc#	8g 8b-	8e	8E	8E	.	.	.	.	.	.	.	.
.	.	8cc#	8b- 8g	8e	8E	8E	.	.	.	.	.	.	.	.
.	.	8ccc#	8b- 8g	8e	8E	8E	.	.	.	.	.	.	.	.
.	.	8ccc#	8b- 8g	8e	8E	8E	.	.	.	.	.	.	.	.
.	.	8ccc#	8g 8b-	8e	8E	8E	.	.	.	.	.	.	.	.
.	.	8ccc#	8b- 8g	8e	8E	8E	.	.	.	.	.	.	.	.
=167	=167	=167	=167	=167	=167	=167	=167	=167	=167	=167	=167	=167	=167	=167
1ddd	1r	8dd	8a 8d	8f	8F	8F	1aa	[1aa	1d	1d	1dd	1dd	1dd	1dd
.	.	8dd	8a 8d	8f	8F	8F	.	.	.	.	.	.	.	.
.	.	8dd	8a 8d	8f	8F	8F	.	.	.	.	.	.	.	.
.	.	8dd	8d 8a	8f	8F	8F	.	.	.	.	.	.	.	.
.	.	8ddd	8a 8d	8f	8F	8F	.	.	.	.	.	.	.	.
.	.	8ddd	8a 8d	8f	8F	8F	.	.	.	.	.	.	.	.
.	.	8ddd	8d 8a	8f	8F	8F	.	.	.	.	.	.	.	.
.	.	8ddd	8d 8a	8f	8F	8F	.	.	.	.	.	.	.	.
=168	=168	=168	=168	=168	=168	=168	=168	=168	=168	=168	=168	=168	=168	=168
1eee-	1r	8ee-	8a 8cc	8f#	8F#	8F#	1ccc	1aa]	1e-	1e-	1cc	1cc	1cc	1cc
.	.	8ee-	8cc 8a	8f#	8F#	8F#	.	.	.	.	.	.	.	.
.	.	8ee-	8a 8cc	8f#	8F#	8F#	.	.	.	.	.	.	.	.
.	.	8ee-	8a 8cc	8f#	8F#	8F#	.	.	.	.	.	.	.	.
.	.	8eee-	8cc 8a	8f#	8F#	8F#	.	.	.	.	.	.	.	.
.	.	8eee-	8cc 8a	8f#	8F#	8F#	.	.	.	.	.	.	.	.
.	.	8eee-	8cc 8a	8f#	8F#	8F#	.	.	.	.	.	.	.	.
.	.	8eee-	8cc 8a	8f#	8F#	8F#	.	.	.	.	.	.	.	.
=169	=169	=169	=169	=169	=169	=169	=169	=169	=169	=169	=169	=169	=169	=169
2eee	2GG	8ee	8cc	2g	2G	2G	2ccc	2gg	2e	2e	2gg	2g	2gg	2g
.	.	8ee	8cc	.	.	.	.	.	.	.	.	.	.	.
.	.	8eee	8ccc	.	.	.	.	.	.	.	.	.	.	.
.	.	8eee	8ccc	.	.	.	.	.	.	.	.	.	.	.
2r	2r	8ddd	8bb	2r	2r	2r	2r	2r	2r	2r	2r	2r	2r	2r
.	.	8ddd	8bb	.	.	.	.	.	.	.	.	.	.	.
.	.	8ccc	8aa	.	.	.	.	.	.	.	.	.	.	.
.	.	8ccc	8aa	.	.	.	.	.	.	.	.	.	.	.
=170	=170	=170	=170	=170	=170	=170	=170	=170	=170	=170	=170	=170	=170	=170
1r	1r	8bb	8gg	2g	2G	2G	1r	1r	1r	1r	1r	1r	1r	1r
.	.	8bb	8gg	.	.	.	.	.	.	.	.	.	.	.
.	.	8aa	8ff	.	.	.	.	.	.	.	.	.	.	.
.	.	8aa	8ff	.	.	.	.	.	.	.	.	.	.	.
.	.	8gg	8ee	2r	2r	2r	.	.	.	.	.	.	.	.
.	.	8gg	8ee	.	.	.	.	.	.	.	.	.	.	.
.	.	8ff	8dd	.	.	.	.	.	.	.	.	.	.	.
.	.	8ff	8dd	.	.	.	.	.	.	.	.	.	.	.
=171	=171	=171	=171	=171	=171	=171	=171	=171	=171	=171	=171	=171	=171	=171
1r	2GG	8ee	8cc	2g	2G	2G	1r	1r	1r	1r	2gg	2g	2gg	2g
.	.	8ee	8cc	.	.	.	.	.	.	.	.	.	.	.
.	.	8gg	8ee	.	.	.	.	.	.	.	.	.	.	.
.	.	8gg	8ee	.	.	.	.	.	.	.	.	.	.	.
.	2r	8ff	8dd	2r	2r	2r	.	.	.	.	2r	2r	2r	2r
.	.	8ff	8dd	.	.	.	.	.	.	.	.	.	.	.
.	.	8ee	8cc	.	.	.	.	.	.	.	.	.	.	.
.	.	8ee	8cc	.	.	.	.	.	.	.	.	.	.	.
=172	=172	=172	=172	=172	=172	=172	=172	=172	=172	=172	=172	=172	=172	=172
1r	1r	8dd	8b	2g	2G	2G	1r	1r	1r	1r	1r	1r	1r	1r
.	.	8dd	8b	.	.	.	.	.	.	.	.	.	.	.
.	.	8cc	8a	.	.	.	.	.	.	.	.	.	.	.
.	.	8cc	8a	.	.	.	.	.	.	.	.	.	.	.
.	.	8b	8g	2r	2r	2r	.	.	.	.	.	.	.	.
.	.	8b	8g	.	.	.	.	.	.	.	.	.	.	.
.	.	8a	8f	.	.	.	.	.	.	.	.	.	.	.
.	.	8a	8f	.	.	.	.	.	.	.	.	.	.	.
=173	=173	=173	=173	=173	=173	=173	=173	=173	=173	=173	=173	=173	=173	=173
1r	2GG	8g	8e	4g	4G	4G	1r	1r	1r	1r	2gg	2g	2gg	2g
.	.	8g	8e	.	.	.	.	.	.	.	.	.	.	.
.	.	8cc	8g	4e	4e	4e	.	.	.	.	.	.	.	.
.	.	8cc	8g	.	.	.	.	.	.	.	.	.	.	.
.	2r	8b	8f	4d	4d	4d	.	.	.	.	2r	2r	2r	2r
.	.	8b	8f	.	.	.	.	.	.	.	.	.	.	.
.	.	8a	8e	4c	4c	4c	.	.	.	.	.	.	.	.
.	.	8a	8e	.	.	.	.	.	.	.	.	.	.	.
=174	=174	=174	=174	=174	=174	=174	=174	=174	=174	=174	=174	=174	=174	=174
1r	1r	8g	8d	4B	4B	4B	1r	1r	1r	1r	1r	1r	1r	1r
.	.	8g	8d	.	.	.	.	.	.	.	.	.	.	.
.	.	8f#	8d	4c	4c	4c	.	.	.	.	.	.	.	.
.	.	8f#	8d	.	.	.	.	.	.	.	.	.	.	.
.	.	8g	8d	4B	4B	4B	.	.	.	.	.	.	.	.
.	.	8g	8d	.	.	.	.	.	.	.	.	.	.	.
.	.	8f#	8d	4c	4c	4c	.	.	.	.	.	.	.	.
.	.	8f#	8d	.	.	.	.	.	.	.	.	.	.	.
=175	=175	=175	=175	=175	=175	=175	=175	=175	=175	=175	=175	=175	=175	=175
2gg	2GG	4g	4G 4d	2B	2B	2B	2gg	2b	2G	2G	2gg	2g	2gg	2g
.	.	4G	2.r	.	.	.	.	.	.	.	.	.	.	.
2r	2r	8g	.	2r	2r	2r	2r	2r	2r	2r	2r	2r	2r	2r
.	.	8a	.	.	.	.	.	.	.	.	.	.	.	.
.	.	8b	.	.	.	.	.	.	.	.	.	.	.	.
.	.	8a	.	.	.	.	.	.	.	.	.	.	.	.
=176	=176	=176	=176	=176	=176	=176	=176	=176	=176	=176	=176	=176	=176	=176
2bb	2GG	4b	4g	2G	2G	2G	2bb	2gg	2G	2G	2gg	2g	2gg	2g
.	.	4G	4G	.	.	.	.	.	.	.	.	.	.	.
2r	2r	8b	8g	2r	2r	2r	2r	2r	2r	2r	2r	2r	2r	2r
.	.	8cc	8a	.	.	.	.	.	.	.	.	.	.	.
.	.	8dd	8b	.	.	.	.	.	.	.	.	.	.	.
.	.	8cc	8a	.	.	.	.	.	.	.	.	.	.	.
=177	=177	=177	=177	=177	=177	=177	=177	=177	=177	=177	=177	=177	=177	=177
2ddd	2GG	4dd	4b	2G	2G	2G	2ddd	2bb	2G	2G	2gg	2g	2gg	2g
.	.	4G	4G	.	.	.	.	.	.	.	.	.	.	.
2r	2r	8dd	8b	2r	2r	2r	2r	2r	2r	2r	2r	2r	2r	2r
.	.	8cc#	8a	.	.	.	.	.	.	.	.	.	.	.
.	.	8dd	8b	.	.	.	.	.	.	.	.	.	.	.
.	.	8ee	8cc	.	.	.	.	.	.	.	.	.	.	.
=178	=178	=178	=178	=178	=178	=178	=178	=178	=178	=178	=178	=178	=178	=178
1ff	2GG	8ff	4dd	2G	2G	2G	1bb	1dd	2G	2G	1dd	1g	1dd	1g
.	.	8ee	.	.	.	.	.	.	.	.	.	.	.	.
.	.	8dd	4r	.	.	.	.	.	.	.	.	.	.	.
.	.	8ee	.	.	.	.	.	.	.	.	.	.	.	.
.	4GG	8ff	4ff 4dd	2G	2F	2F	.	.	2F	2F	.	.	.	.
.	.	8gg	.	.	.	.	.	.	.	.	.	.	.	.
.	4GG	8aa	4r	.	.	.	.	.	.	.	.	.	.	.
.	.	8bb	.	.	.	.	.	.	.	.	.	.	.	.
=179	=179	=179	=179	=179	=179	=179	=179	=179	=179	=179	=179	=179	=179	=179
4ee	4C	4ccc	4ee 4gg	4E	4E	4E	4ccc	4ee	4E	4E	4ee	4cc	4ee	4cc
2.r	2.r	4r	4r	4r	4r	4r	2.r	2.r	4r	4r	2.r	2.r	2.r	2.r
.	.	4aa	4ff	4F	4F	4F	.	.	4F	4F	.	.	.	.
.	.	4r	4r	4r	4r	4r	.	.	4r	4r	.	.	.	.
=180	=180	=180	=180	=180	=180	=180	=180	=180	=180	=180	=180	=180	=180	=180
1r	1r	4gg	4ee	4G	4G	4G	1r	1r	4G	4G	1r	1r	1r	1r
.	.	4r	4r	4r	4r	4r	.	.	4r	4r	.	.	.	.
.	.	4b	4b	4G	4G	4G	.	.	4G	4G	.	.	.	.
.	.	4r	4r	4r	4r	4r	.	.	4r	4r	.	.	.	.
=181	=181	=181	=181	=181	=181	=181	=181	=181	=181	=181	=181	=181	=181	=181
1r	1r	2cc	2f#	2d	2A	2A	1r	1r	2A	2A	1r	1r	1r	1r
.	.	2r	2r	2r	2r	2r	.	.	2r	2r	.	.	.	.
=182	=182	=182	=182	=182	=182	=182	=182	=182	=182	=182	=182	=182	=182	=182
1ccc	1r	4ccc	1ff# 1a	1c	1D	1D	1ff#	1aa	1D	1D	1r	1r	1r	1r
.	.	4ccc	.	.	.	.	.	.	.	.	.	.	.	.
.	.	8ddd	.	.	.	.	.	.	.	.	.	.	.	.
.	.	8ccc	.	.	.	.	.	.	.	.	.	.	.	.
.	.	8bb	.	.	.	.	.	.	.	.	.	.	.	.
.	.	8aa	.	.	.	.	.	.	.	.	.	.	.	.
=183	=183	=183	=183	=183	=183	=183	=183	=183	=183	=183	=183	=183	=183	=183
2bb	1r	4gg	4gg 4b	4B	2GG	2GG	2gg	2gg	2G	2G	1r	1r	1r	1r
.	.	2.r	2.r	2.r	.	.	.	.	.	.	.	.	.	.
4r	.	.	.	.	2r	2r	4r	4r	4r	2r	.	.	.	.
4a	.	.	.	.	.	.	4cc	4ff#	4d	.	.	.	.	.
=184	=184	=184	=184	=184	=184	=184	=184	=184	=184	=184	=184	=184	=184	=184
4b	1r	1r	1r	1r	1r	1r	4b	4gg	4G	1r	1r	1r	1r	1r
4a	.	.	.	.	.	.	4cc	4ff#	4d	.	.	.	.	.
4b	.	.	.	.	.	.	4b	4gg	4G	.	.	.	.	.
4a	.	.	.	.	.	.	4cc	4ff#	4d	.	.	.	.	.
=185	=185	=185	=185	=185	=185	=185	=185	=185	=185	=185	=185	=185	=185	=185
4b	1r	2.r	1r	1r	1r	1r	4b	4gg	4G	1r	1r	1r	1r	1r
2.r	.	.	.	.	.	.	2.r	2.r	2.r	.	.	.	.	.
.	.	4ff#	.	.	.	.	.	.	.	.	.	.	.	.
=186	=186	=186	=186	=186	=186	=186	=186	=186	=186	=186	=186	=186	=186	=186
1r	1r	4gg	1r	1r	1r	1r	1r	1r	1r	1r	1r	1r	1r	1r
.	.	4aa	.	.	.	.	.	.	.	.	.	.	.	.
.	.	4gg	.	.	.	.	.	.	.	.	.	.	.	.
.	.	4ff	.	.	.	.	.	.	.	.	.	.	.	.
=187	=187	=187	=187	=187	=187	=187	=187	=187	=187	=187	=187	=187	=187	=187
1r	1r	2.ee	1cc#	1g	1r	1r	1r	1r	1r	1r	1r	1r	1r	1r
.	.	8ff	.	.	.	.	.	.	.	.	.	.	.	.
.	.	8ee	.	.	.	.	.	.	.	.	.	.	.	.
=188	=188	=188	=188	=188	=188	=188	=188	=188	=188	=188	=188	=188	=188	=188
1r	1r	2dd	2cc	2.f#	1r	1r	1r	1r	1r	1r	1r	1r	1r	1r
.	.	2gg	2b	.	.	.	.	.	.	.	.	.	.	.
.	.	.	.	4f	.	.	.	.	.	.	.	.	.	.
=189	=189	=189	=189	=189	=189	=189	=189	=189	=189	=189	=189	=189	=189	=189
1r	1r	4cc	2b-	4e	1r	1r	1r	1r	1r	1r	1r	1r	1r	1r
.	.	4ee	.	4g	.	.	.	.	.	.	.	.	.	.
.	.	4ff	4a	4f	.	.	.	.	.	.	.	.	.	.
.	.	4aa	4f	4F	.	.	.	.	.	.	.	.	.	.
=190	=190	=190	=190	=190	=190	=190	=190	=190	=190	=190	=190	=190	=190	=190
1r	1r	2aa	2f	1c	1r	1r	1r	1r	1r	1r	1r	1r	1r	1r
.	.	2gg	2e	.	.	.	.	.	.	.	.	.	.	.
=191	=191	=191	=191	=191	=191	=191	=191	=191	=191	=191	=191	=191	=191	=191
4bb	4GG	8ff	8ff	4B 4d	4G	4G	4ff	4dd	4G	4G	4dd	4g	4dd	4g
.	.	8dd	8dd	.	.	.	.	.	.	.	.	.	.	.
4bb	4GG	8b	8b	4d 4B	4G	4G	4ff	4dd	4G	4G	4dd	4g	4dd	4g
.	.	8g	8g	.	.	.	.	.	.	.	.	.	.	.
4bb	4GG	8f	8f	4d 4B	4G	4G	4ff	4dd	4G	4G	4dd	4g	4dd	4g
.	.	8d	8d	.	.	.	.	.	.	.	.	.	.	.
4r	4r	8B	8B	4r	4r	4r	4r	4r	4r	4r	4r	4r	4r	4r
.	.	8G	8G	.	.	.	.	.	.	.	.	.	.	.
=192	=192	=192	=192	=192	=192	=192	=192	=192	=192	=192	=192	=192	=192	=192
4ccc	4C	8c	8c	4c 4e	4G	4G	4ee	4cc	4G	4G	4ee	4cc	4ee	4cc
.	.	8e	8e	.	.	.	.	.	.	.	.	.	.	.
4ccc	4C	8g	8g	4e 4c	4G	4G	4ee	4cc	4G	4G	4ee	4cc	4ee	4cc
.	.	8b	8b	.	.	.	.	.	.	.	.	.	.	.
4ccc	4C	8cc	8cc	4e 4c	4G	4G	4ee	4cc	4G	4G	4ee	4cc	4ee	4cc
.	.	8ee	8ee	.	.	.	.	.	.	.	.	.	.	.
4r	4r	8gg	8gg	4r	4r	4r	4r	4r	4r	4r	4r	4r	4r	4r
.	.	8ee	8ee	.	.	.	.	.	.	.	.	.	.	.
=193	=193	=193	=193	=193	=193	=193	=193	=193	=193	=193	=193	=193	=193	=193
4bb	4GG	8ff	8ff	4B 4d	4G	4G	4ff	4dd	4G	4G	4dd	4g	4dd	4g
.	.	8dd	8dd	.	.	.	.	.	.	.	.	.	.	.
4bb	4GG	8b	8b	4d 4B	4G	4G	4ff	4dd	4G	4G	4dd	4g	4dd	4g
.	.	8g	8g	.	.	.	.	.	.	.	.	.	.	.
4bb	4GG	8f	8f	4d 4B	4G	4G	4ff	4dd	4G	4G	4dd	4g	4dd	4g
.	.	8d	8d	.	.	.	.	.	.	.	.	.	.	.
4r	4r	8B	8B	4r	4r	4r	4r	4r	4r	4r	4r	4r	4r	4r
.	.	8G	8G	.	.	.	.	.	.	.	.	.	.	.
=194	=194	=194	=194	=194	=194	=194	=194	=194	=194	=194	=194	=194	=194	=194
4ccc	4C	8c	8c	2.e 2.c	2.C	2.C	4ee	4cc	2.C	2.C	4ee	4cc	4ee	4cc
.	.	8e	8e	.	.	.	.	.	.	.	.	.	.	.
4ccc	4C	8g	8g	.	.	.	4ee	4cc	.	.	4ee	4cc	4ee	4cc
.	.	8cc	8cc	.	.	.	.	.	.	.	.	.	.	.
4ccc	4C	8ee	8ee	.	.	.	4ee	4cc	.	.	4ee	4cc	4ee	4cc
.	.	8cc	8cc	.	.	.	.	.	.	.	.	.	.	.
4ccc	4C	8aa	8aa	4f	4F	4F	4aa	4cc	4F	4F	4cc	4cc	4cc	4cc
.	.	8cc	8cc	.	.	.	.	.	.	.	.	.	.	.
=195	=195	=195	=195	=195	=195	=195	=195	=195	=195	=195	=195	=195	=195	=195
[1ccc	4C	8gg	8gg	4e	4E	4E	4gg	4cc	4E	4E	4cc	4cc	4cc	4cc
.	.	8cc	8cc	.	.	.	.	.	.	.	.	.	.	.
.	4C	8aa	8aa	4f	4F	4F	4aa	4cc	4F	4F	4cc	4cc	4cc	4cc
.	.	8cc	8cc	.	.	.	.	.	.	.	.	.	.	.
.	4C	8gg	8gg	4e	4E	4E	4gg	4cc	4E	4E	4cc	4cc	4cc	4cc
.	.	8cc	8cc	.	.	.	.	.	.	.	.	.	.	.
.	4C	8aa	8aa	4f	4F	4F	4aa	4cc	4F	4F	4cc	4cc	4cc	4cc
.	.	8cc	8cc	.	.	.	.	.	.	.	.	.	.	.
=196	=196	=196	=196	=196	=196	=196	=196	=196	=196	=196	=196	=196	=196	=196
1ccc_	2C	8gg	8gg	2e	2E	2E	2gg	2cc	2E	2E	2cc	2cc	2cc	2cc
.	.	8cc	8cc	.	.	.	.	.	.	.	.	.	.	.
.	.	8ee	8ee	.	.	.	.	.	.	.	.	.	.	.
.	.	8gg	8gg	.	.	.	.	.	.	.	.	.	.	.
.	4r	8ccc	8ccc	4r	4r	4r	4r	4r	4r	4r	4r	4r	4r	4r
.	.	8cc	8cc	.	.	.	.	.	.	.	.	.	.	.
.	4C	8aa	8aa	4f	4F	4F	4aa	4cc	4F	4F	4cc	4cc	4cc	4cc
.	.	8cc	8cc	.	.	.	.	.	.	.	.	.	.	.
=197	=197	=197	=197	=197	=197	=197	=197	=197	=197	=197	=197	=197	=197	=197
1ccc_	4C	8gg	8gg	4e	4E	4E	4gg	4cc	4E	4E	4cc	4cc	4cc	4cc
.	.	8cc	8cc	.	.	.	.	.	.	.	.	.	.	.
.	4C	8aa	8aa	4f	4F	4F	4aa	4cc	4F	4F	4cc	4cc	4cc	4cc
.	.	8cc	8cc	.	.	.	.	.	.	.	.	.	.	.
.	4C	8gg	8gg	4e	4E	4E	4gg	4cc	4E	4E	4cc	4cc	4cc	4cc
.	.	8cc	8cc	.	.	.	.	.	.	.	.	.	.	.
.	4C	8aa	8aa	4f	4F	4F	4aa	4cc	4F	4F	4cc	4cc	4cc	4cc
.	.	8cc	8cc	.	.	.	.	.	.	.	.	.	.	.
=198	=198	=198	=198	=198	=198	=198	=198	=198	=198	=198	=198	=198	=198	=198
4ccc]	4C	4gg	4gg	4e	4E	4E	4gg	4cc	4E	4E	4cc	4cc	4cc	4cc
2.r	2.r	4r	4r	4r	4r	4r	4r	4r	4r	4r	2.r	2.r	2.r	2.r
.	.	4ccc	4ee	4a	4A	4A	4ee	4cc	4A	4A	.	.	.	.
.	.	4r	4r	4r	4r	4r	4r	4r	4r	4r	.	.	.	.
=199	=199	=199	=199	=199	=199	=199	=199	=199	=199	=199	=199	=199	=199	=199
1r	1r	4ddd	4ff	4f	4F	4F	4ff	4dd	4F	4F	1r	1r	1r	1r
.	.	4r	4r	4r	4r	4r	4r	4r	4r	4r	.	.	.	.
.	.	4bb	4dd	4g	4G	4G	4dd	4b	4G	4G	.	.	.	.
.	.	4r	4r	4r	4r	4r	4r	4r	4r	4r	.	.	.	.
=200	=200	=200	=200	=200	=200	=200	=200	=200	=200	=200	=200	=200	=200	=200
4cc	4C	2ccc	2ee	2c	2C	2C	4cc	4cc	4c	4E	4cc	4e	4cc	4e
8cc	8C	.	.	.	.	.	8cc	8e	8c	8E	8cc	8e	8cc	8e
8cc	8C	.	.	.	.	.	8cc	8e	8c	8E	8cc	8e	8cc	8e
4cc	4C	2r	2r	2r	2r	2r	4cc	4e	4c	4E	4cc	4e	4cc	4e
4cc	4C	.	.	.	.	.	4cc	4e	4c	4E	4cc	4e	4cc	4e
=201	=201	=201	=201	=201	=201	=201	=201	=201	=201	=201	=201	=201	=201	=201
4cc	4C	8c	8c	4c	4C	4C	4cc	4e	4c	4E	4cc	4e	4cc	4e
.	.	8B	8B	.	.	.	.	.	.	.	.	.	.	.
2.r	2.r	8c	8c	4c	4C	4C	2.r	2.r	2.r	2.r	2.r	2.r	2.r	2.r
.	.	8B	8B	.	.	.	.	.	.	.	.	.	.	.
.	.	8c	8c	4c	4C	4C	.	.	.	.	.	.	.	.
.	.	8e	8e	.	.	.	.	.	.	.	.	.	.	.
.	.	8g	8g	4c	4C	4C	.	.	.	.	.	.	.	.
.	.	8e	8e	.	.	.	.	.	.	.	.	.	.	.
=202	=202	=202	=202	=202	=202	=202	=202	=202	=202	=202	=202	=202	=202	=202
4ee	4C	4c	4c	2c	2C	2C	4ee	4cc	4e	4c	4ee	4cc	4ee	4cc
8ee	8C	2.r	2.r	.	.	.	8ee	8cc	8e	8c	8ee	8cc	8ee	8cc
8ee	8C	.	.	.	.	.	8ee	8cc	8e	8c	8ee	8cc	8ee	8cc
4ee	4C	.	.	2r	2r	2r	4ee	4cc	4e	4c	4ee	4cc	4ee	4cc
4ee	4C	.	.	.	.	.	4ee	4cc	4e	4c	4ee	4cc	4ee	4cc
=203	=203	=203	=203	=203	=203	=203	=203	=203	=203	=203	=203	=203	=203	=203
4ee	4C	8e	8c	4c	4C	4C	4ee	4cc	4e	4c	4ee	4cc	4ee	4cc
.	.	8d#	8B	.	.	.	.	.	.	.	.	.	.	.
2.r	2.r	8e	8c	4c	4C	4C	2.r	2.r	2.r	2.r	2.r	2.r	2.r	2.r
.	.	8d#	8B	.	.	.	.	.	.	.	.	.	.	.
.	.	8e	8c	4c	4C	4C	.	.	.	.	.	.	.	.
.	.	8g	8e	.	.	.	.	.	.	.	.	.	.	.
.	.	8cc	8g	4c	4C	4C	.	.	.	.	.	.	.	.
.	.	8g	8e	.	.	.	.	.	.	.	.	.	.	.
=204	=204	=204	=204	=204	=204	=204	=204	=204	=204	=204	=204	=204	=204	=204
4gg	4C	4e	4c	2c	2C	2C	4gg	4ee	4g	4e	4gg	4ee	4gg	4ee
8gg	8C	2.r	2.r	.	.	.	8gg	8ee	8g	8e	8gg	8ee	8gg	8ee
8gg	8C	.	.	.	.	.	8gg	8ee	8g	8e	8gg	8ee	8gg	8ee
4gg	4C	.	.	2r	2r	2r	4gg	4ee	4g	4e	4gg	4ee	4gg	4ee
4gg	4C	.	.	.	.	.	4gg	4ee	4g	4e	4gg	4ee	4gg	4ee
=205	=205	=205	=205	=205	=205	=205	=205	=205	=205	=205	=205	=205	=205	=205
4gg	4C	8g	8e	4c	4C	4C	4gg	4ee	4g	4e	4gg	4ee	4gg	4ee
.	.	8f#	8d#	.	.	.	.	.	.	.	.	.	.	.
2.r	2.r	8g	8e	4c	4C	4C	2.r	2.r	2.r	2.r	2.r	2.r	2.r	2.r
.	.	8f#	8d#	.	.	.	.	.	.	.	.	.	.	.
.	.	8g	8e	4c	4C	4C	.	.	.	.	.	.	.	.
.	.	8cc	8g	.	.	.	.	.	.	.	.	.	.	.
.	.	8ee	8cc	4c	4C	4C	.	.	.	.	.	.	.	.
.	.	8cc	8g	.	.	.	.	.	.	.	.	.	.	.
=206	=206	=206	=206	=206	=206	=206	=206	=206	=206	=206	=206	=206	=206	=206
2.ccc	4C	4g	4e	2c	2C	2C	2.ccc	2.ee	2C	2C	2.ee	2.cc	2.ee	2.cc
.	2r	8gg	8ee	.	.	.	.	.	.	.	.	.	.	.
.	.	8ee	8cc	.	.	.	.	.	.	.	.	.	.	.
.	.	4cc	4g	4r	4r	4r	.	.	4r	4r	.	.	.	.
4bb	4GG	4bb	4dd	4g	4G	4G	4bb	4dd	4G	4G	4dd	4g	4dd	4g
=207	=207	=207	=207	=207	=207	=207	=207	=207	=207	=207	=207	=207	=207	=207
4ccc	4C	4ccc	4ee	4c	4C	4C	4ccc	4ee	4C	4C	4ee	4cc	4ee	4cc
4bb	4GG	4bb	4dd	4g	4G	4G	4bb	4dd	4G	4G	4dd	4g	4dd	4g
4ccc	4C	4ccc	4ee	4c	4C	4C	4ccc	4ee	4C	4C	4ee	4cc	4ee	4cc
4bb	4GG	4bb	4dd	4g	4G	4G	4bb	4dd	4G	4G	4dd	4g	4dd	4g
=208	=208	=208	=208	=208	=208	=208	=208	=208	=208	=208	=208	=208	=208	=208
4ccc	4C	4ccc	4ee	4c	4C	4C	4ccc	4ee	4C	4C	4ee	4cc	4ee	4cc
2r	2r	2r	2r	2r	2r	2r	2r	2r	2r	2r	2r	2r	2r	2r
4bb	4GG	4bb	4dd	4g	4G	4G	4bb	4dd	4G	4G	4dd	4g	4dd	4g
=209	=209	=209	=209	=209	=209	=209	=209	=209	=209	=209	=209	=209	=209	=209
4ccc	4C	4ccc	4ee	4c	4C	4C	4ccc	4ee	4C	4C	4ee	4cc	4ee	4cc
4bb	4GG	4bb	4dd	4g	4G	4G	4bb	4dd	4G	4G	4dd	4g	4dd	4g
4ccc	4C	4ccc	4ee	4c	4C	4C	4ccc	4ee	4C	4C	4ee	4cc	4ee	4cc
4bb	4GG	4bb	4dd	4g	4G	4G	4bb	4dd	4G	4G	4dd	4g	4dd	4g
=210	=210	=210	=210	=210	=210	=210	=210	=210	=210	=210	=210	=210	=210	=210
4ccc	4C	4ccc	4ee	4c	4C	4C	4ccc	4ee	4C	4C	4ee	4cc	4ee	4cc
2.r	2.r	2.r	2.r	2.r	2.r	2.r	2.r	2.r	2.r	2.r	2.r	2.r	2.r	2.r
=211	=211	=211	=211	=211	=211	=211	=211	=211	=211	=211	=211	=211	=211	=211
2ccc	2C	2ccc 2ee	2g 2ee 2cc	2c	2C	2C	2ccc	2ee	2C	2C	2ee	2cc	2ee	2cc
2ccc	2C	2ccc 2ee	2ee 2g 2cc	2c	2C	2C	2ccc	2ee	2C	2C	2ee	2cc	2ee	2cc
=212	=212	=212	=212	=212	=212	=212	=212	=212	=212	=212	=212	=212	=212	=212
2ccc	2C	2ccc 2ee	2ee 2cc 2g	2c	2C	2C	2ccc	2ee	2C	2C	2ee	2cc	2ee	2cc
2r	2r	2r	2r	2r	2r	2r	2r	2r	2r	2r	2r	2r	2r	2r
==	==	==	==	==	==	==	==	==	==	==	==	==	==	==
*-	*-	*-	*-	*-	*-	*-	*-	*-	*-	*-	*-	*-	*-	*-
!!!RWG1: This file contains only pitch and duration data.
!!!RWG2: Transposing instruments are not transposed.
!!!RWG3: Spines may have incompatible meters.
!!!RWG4: Durations of rests and tied notes may be interpreted.
!!!RWG: Key is interpreted using the Humdrum key tool.
!!!AFT: stage1
!!!END: 1997/04/15
!!format changes:
!!content changes:
!!public access: complete
!!!KEY: 2905175783
!!!EMD: Converted from MuseData to Humdrum Dec 16, 2000, by Andreas Kornstaedt using muse2kern.
